;FLAVOR:Marlin
;TIME:338
;Filament used: 0.141401m, 0m
;Layer height: 0.2
;MINX:81
;MINY:91
;MINZ:0.3
;MAXX:119
;MAXY:109
;MAXZ:4.9
;Generated with Cura_SteamEngine 4.8.0
T0
M140 S60
M105
M190 S60
M104 S200
M105
M109 S200
M82 ;absolute extrusion mode
G28 ;Home
G1 Z15.0 F6000 ;Move the platform down 15mm
;Prime the extruder
G92 E0
G1 F200 E3
G92 E0
M83 ;relative extrusion mode
G1 F1500 E-6.5
;LAYER_COUNT:24
;LAYER:0
M107
G0 F3600 X82.406 Y91.972 Z0.3
;TYPE:SKIRT
G1 F1500 E6.5
G1 F1800 X82.86 Y91.635 E0.01064
G1 X83.357 Y91.366 E0.01063
G1 X83.887 Y91.169 E0.01064
G1 X84.44 Y91.05 E0.01064
G1 X85.218 Y91.002 E0.01466
G1 X85.33 Y91 E0.00211
G1 X114.35 Y91 E0.54588
G1 X115.048 Y91.01 E0.01313
G1 X115.612 Y91.058 E0.01065
G1 X116.162 Y91.185 E0.01062
G1 X116.69 Y91.389 E0.01065
G1 X117.184 Y91.664 E0.01064
G1 X117.633 Y92.007 E0.01063
G1 X118.03 Y92.409 E0.01063
G1 X118.367 Y92.864 E0.01065
G1 X118.635 Y93.361 E0.01062
G1 X118.831 Y93.891 E0.01063
G1 X118.951 Y94.444 E0.01064
G1 X118.998 Y95.218 E0.01459
G1 X119 Y95.33 E0.00211
G1 X119 Y104.314 E0.16899
G1 X118.991 Y105.041 E0.01368
G1 X118.944 Y105.604 E0.01063
G1 X118.818 Y106.155 E0.01063
G1 X118.616 Y106.683 E0.01063
G1 X118.341 Y107.177 E0.01064
G1 X117.999 Y107.627 E0.01063
G1 X117.597 Y108.025 E0.01064
G1 X117.144 Y108.362 E0.01062
G1 X116.647 Y108.632 E0.01064
G1 X116.117 Y108.829 E0.01064
G1 X115.565 Y108.95 E0.01063
G1 X114.782 Y108.998 E0.01476
G1 X114.67 Y109 E0.00211
G1 X85.655 Y109 E0.54579
G1 X84.957 Y108.991 E0.01313
G1 X84.394 Y108.943 E0.01063
G1 X83.843 Y108.817 E0.01063
G1 X83.315 Y108.615 E0.01063
G1 X82.821 Y108.34 E0.01064
G1 X82.371 Y107.998 E0.01063
G1 X81.973 Y107.596 E0.01064
G1 X81.637 Y107.142 E0.01062
G1 X81.367 Y106.645 E0.01064
G1 X81.17 Y106.115 E0.01064
G1 X81.05 Y105.563 E0.01063
G1 X81.001 Y104.766 E0.01502
G1 X81 Y95.62 E0.17204
G1 X81.009 Y94.955 E0.01251
G1 X81.057 Y94.392 E0.01063
G1 X81.183 Y93.841 E0.01063
G1 X81.386 Y93.313 E0.01064
G1 X81.662 Y92.819 E0.01064
G1 X82.004 Y92.369 E0.01063
G1 X82.406 Y91.972 E0.01063
G0 F3600 X82.794 Y92.171
G1 F1800 X83.241 Y91.873 E0.01011
G1 X83.726 Y91.645 E0.01008
G1 X84.24 Y91.492 E0.01009
G1 X84.908 Y91.41 E0.01266
G1 X85.33 Y91.4 E0.00794
G1 X114.345 Y91.4 E0.54579
G1 X115.043 Y91.41 E0.01313
G1 X115.577 Y91.458 E0.01009
G1 X116.098 Y91.584 E0.01008
G1 X116.595 Y91.787 E0.0101
G1 X117.056 Y92.061 E0.01009
G1 X117.471 Y92.4 E0.01008
G1 X117.831 Y92.798 E0.01009
G1 X118.128 Y93.244 E0.01008
G1 X118.356 Y93.73 E0.0101
G1 X118.508 Y94.244 E0.01008
G1 X118.59 Y94.909 E0.0126
G1 X118.6 Y95.33 E0.00792
G1 X118.6 Y104.309 E0.1689
G1 X118.591 Y105.036 E0.01368
G1 X118.544 Y105.57 E0.01008
G1 X118.419 Y106.091 E0.01008
G1 X118.217 Y106.588 E0.01009
G1 X117.944 Y107.05 E0.01009
G1 X117.606 Y107.466 E0.01008
G1 X117.209 Y107.827 E0.01009
G1 X116.763 Y108.125 E0.01009
G1 X116.278 Y108.353 E0.01008
G1 X115.764 Y108.507 E0.01009
G1 X115.092 Y108.59 E0.01274
G1 X114.67 Y108.6 E0.00794
G1 X85.661 Y108.6 E0.54568
G1 X84.963 Y108.591 E0.01313
G1 X84.428 Y108.544 E0.0101
G1 X83.907 Y108.418 E0.01008
G1 X83.41 Y108.216 E0.01009
G1 X82.949 Y107.943 E0.01008
G1 X82.533 Y107.604 E0.01009
G1 X82.172 Y107.208 E0.01008
G1 X81.874 Y106.762 E0.01009
G1 X81.646 Y106.276 E0.0101
G1 X81.493 Y105.762 E0.01009
G1 X81.41 Y105.088 E0.01277
G1 X81.4 Y104.658 E0.00809
G1 X81.4 Y95.625 E0.16992
G1 X81.409 Y94.96 E0.01251
G1 X81.457 Y94.426 E0.01009
G1 X81.583 Y93.905 E0.01008
G1 X81.785 Y93.408 E0.01009
G1 X82.058 Y92.947 E0.01008
G1 X82.397 Y92.531 E0.01009
G1 X82.794 Y92.171 E0.01008
G0 F3600 X82.789 Y92.704
G1 F1800 X83.18 Y92.383 E0.00952
G1 X83.617 Y92.128 E0.00952
G1 X84.088 Y91.944 E0.00951
G1 X84.582 Y91.838 E0.0095
G1 X85.24 Y91.801 E0.0124
G1 X114.339 Y91.8 E0.54737
G1 X115.037 Y91.81 E0.01313
G1 X115.54 Y91.857 E0.0095
G1 X116.03 Y91.983 E0.00952
G1 X116.494 Y92.185 E0.00952
G1 X116.92 Y92.457 E0.00951
G1 X117.298 Y92.792 E0.0095
G1 X117.618 Y93.183 E0.0095
G1 X117.873 Y93.62 E0.00952
G1 X118.056 Y94.091 E0.00951
G1 X118.163 Y94.585 E0.00951
G1 X118.199 Y95.24 E0.01234
G1 X118.2 Y104.304 E0.1705
G1 X118.191 Y105.031 E0.01368
G1 X118.145 Y105.534 E0.0095
G1 X118.02 Y106.024 E0.00951
G1 X117.819 Y106.488 E0.00951
G1 X117.548 Y106.915 E0.00951
G1 X117.213 Y107.294 E0.00951
G1 X116.823 Y107.615 E0.0095
G1 X116.387 Y107.871 E0.00951
G1 X115.916 Y108.054 E0.00951
G1 X115.422 Y108.162 E0.00951
G1 X114.76 Y108.199 E0.01247
G1 X85.666 Y108.2 E0.54727
G1 X84.968 Y108.191 E0.01313
G1 X84.464 Y108.144 E0.00952
G1 X83.974 Y108.019 E0.00951
G1 X83.51 Y107.818 E0.00951
G1 X83.084 Y107.547 E0.0095
G1 X82.705 Y107.212 E0.00951
G1 X82.384 Y106.821 E0.00952
G1 X82.129 Y106.385 E0.0095
G1 X81.945 Y105.914 E0.00951
G1 X81.838 Y105.42 E0.00951
G1 X81.801 Y104.744 E0.01273
G1 X81.8 Y95.631 E0.17142
G1 X81.809 Y94.966 E0.01251
G1 X81.856 Y94.462 E0.00952
G1 X81.982 Y93.973 E0.0095
G1 X82.183 Y93.509 E0.00951
G1 X82.454 Y93.082 E0.00951
G1 X82.789 Y92.704 E0.0095
G1 F1500 E-6.5
;MESH:rectangulo.STL
G0 F3600 X85.614 Y94.335
G0 X85.614 Y95.614
G0 X114.33 Y104.33
G0 X114.4 Y104.4
;TYPE:WALL-INNER
G1 F1500 E6.5
G1 F1800 X85.6 Y104.4 E0.54174
G1 X85.6 Y95.6 E0.16553
G1 X114.4 Y95.6 E0.54174
G1 X114.4 Y104.4 E0.16553
G0 F3600 X114.8 Y104.8
;TYPE:WALL-OUTER
G1 F1800 X85.2 Y104.8 E0.55679
G1 X85.2 Y95.2 E0.18058
G1 X114.8 Y95.2 E0.55679
G1 X114.8 Y104.8 E0.18058
G0 F3600 X114.6 Y104.8
G0 X114.01 Y104.01
;TYPE:SKIN
G1 F1800 X85.99 Y104.01 E0.52707
G1 X85.99 Y95.99 E0.15086
G1 X114.01 Y95.99 E0.52707
G1 X114.01 Y104.01 E0.15086
G0 F3600 X113.829 Y96.293
G1 F1800 X113.706 Y96.17 E0.00327
G0 F3600 X113.14 Y96.17
G1 F1800 X113.829 Y96.858 E0.01832
G0 F3600 X113.829 Y97.424
G1 F1800 X112.574 Y96.17 E0.03337
G0 F3600 X112.009 Y96.17
G1 F1800 X113.829 Y97.99 E0.04842
G0 F3600 X113.829 Y98.555
G1 F1800 X111.443 Y96.17 E0.06346
G0 F3600 X110.877 Y96.17
G1 F1800 X113.829 Y99.121 E0.07852
G0 F3600 X113.829 Y99.687
G1 F1800 X110.312 Y96.17 E0.09356
G0 F3600 X109.746 Y96.17
G1 F1800 X113.829 Y100.252 E0.1086
G0 F3600 X113.829 Y100.818
G1 F1800 X109.18 Y96.17 E0.12366
G0 F3600 X108.615 Y96.17
G1 F1800 X113.829 Y101.384 E0.1387
G0 F3600 X113.829 Y101.949
G1 F1800 X108.049 Y96.17 E0.15375
G0 F3600 X107.483 Y96.17
G1 F1800 X113.829 Y102.515 E0.1688
G0 F3600 X113.829 Y103.081
G1 F1800 X106.918 Y96.17 E0.18385
G0 F3600 X106.352 Y96.17
G1 F1800 X113.829 Y103.647 E0.1989
G0 F3600 X113.446 Y103.829
G1 F1800 X105.786 Y96.17 E0.20376
G0 F3600 X105.221 Y96.17
G1 F1800 X112.88 Y103.829 E0.20375
G0 F3600 X112.314 Y103.829
G1 F1800 X104.655 Y96.17 E0.20375
G0 F3600 X104.089 Y96.17
G1 F1800 X111.749 Y103.829 E0.20376
G0 F3600 X111.183 Y103.829
G1 F1800 X103.523 Y96.17 E0.20376
G0 F3600 X102.958 Y96.17
G1 F1800 X110.617 Y103.829 E0.20375
G0 F3600 X110.051 Y103.829
G1 F1800 X102.392 Y96.17 E0.20375
G0 F3600 X101.826 Y96.17
G1 F1800 X109.486 Y103.829 E0.20376
G0 F3600 X108.92 Y103.829
G1 F1800 X101.261 Y96.17 E0.20375
G0 F3600 X100.695 Y96.17
G1 F1800 X108.354 Y103.829 E0.20375
G0 F3600 X107.789 Y103.829
G1 F1800 X100.129 Y96.17 E0.20376
G0 F3600 X99.564 Y96.17
G1 F1800 X107.223 Y103.829 E0.20375
G0 F3600 X106.657 Y103.829
G1 F1800 X98.998 Y96.17 E0.20375
G0 F3600 X98.432 Y96.17
G1 F1800 X106.092 Y103.829 E0.20376
G0 F3600 X105.526 Y103.829
G1 F1800 X97.867 Y96.17 E0.20375
G0 F3600 X97.301 Y96.17
G1 F1800 X104.96 Y103.829 E0.20375
G0 F3600 X104.395 Y103.829
G1 F1800 X96.735 Y96.17 E0.20376
G0 F3600 X96.17 Y96.17
G1 F1800 X103.829 Y103.829 E0.20375
G0 F3600 X103.263 Y103.829
G1 F1800 X95.604 Y96.17 E0.20375
G0 F3600 X95.038 Y96.17
G1 F1800 X102.698 Y103.829 E0.20376
G0 F3600 X102.132 Y103.829
G1 F1800 X94.473 Y96.17 E0.20375
G0 F3600 X93.907 Y96.17
G1 F1800 X101.566 Y103.829 E0.20375
G0 F3600 X101.001 Y103.829
G1 F1800 X93.341 Y96.17 E0.20376
G0 F3600 X92.775 Y96.17
G1 F1800 X100.435 Y103.829 E0.20376
G0 F3600 X99.869 Y103.829
G1 F1800 X92.21 Y96.17 E0.20375
G0 F3600 X91.644 Y96.17
G1 F1800 X99.303 Y103.829 E0.20375
G0 F3600 X98.738 Y103.829
G1 F1800 X91.078 Y96.17 E0.20376
G0 F3600 X90.513 Y96.17
G1 F1800 X98.172 Y103.829 E0.20375
G0 F3600 X97.606 Y103.829
G1 F1800 X89.947 Y96.17 E0.20375
G0 F3600 X89.381 Y96.17
G1 F1800 X97.041 Y103.829 E0.20376
G0 F3600 X96.475 Y103.829
G1 F1800 X88.816 Y96.17 E0.20375
G0 F3600 X88.25 Y96.17
G1 F1800 X95.909 Y103.829 E0.20375
G0 F3600 X95.344 Y103.829
G1 F1800 X87.684 Y96.17 E0.20376
G0 F3600 X87.119 Y96.17
G1 F1800 X94.778 Y103.829 E0.20375
G0 F3600 X94.212 Y103.829
G1 F1800 X86.553 Y96.17 E0.20375
G0 F3600 X86.169 Y96.351
G1 F1800 X93.647 Y103.829 E0.19893
G0 F3600 X93.081 Y103.829
G1 F1800 X86.169 Y96.917 E0.18387
G0 F3600 X86.169 Y97.483
G1 F1800 X92.515 Y103.829 E0.16882
G0 F3600 X91.95 Y103.829
G1 F1800 X86.169 Y98.048 E0.15379
G0 F3600 X86.169 Y98.614
G1 F1800 X91.384 Y103.829 E0.13873
G0 F3600 X90.818 Y103.829
G1 F1800 X86.169 Y99.18 E0.12367
G0 F3600 X86.169 Y99.745
G1 F1800 X90.252 Y103.829 E0.10863
G0 F3600 X89.687 Y103.829
G1 F1800 X86.169 Y100.311 E0.09359
G0 F3600 X86.169 Y100.877
G1 F1800 X89.121 Y103.829 E0.07853
G0 F3600 X88.555 Y103.829
G1 F1800 X86.169 Y101.442 E0.06349
G0 F3600 X86.169 Y102.008
G1 F1800 X87.99 Y103.829 E0.04844
G0 F3600 X87.424 Y103.829
G1 F1800 X86.169 Y102.574 E0.03339
G0 F3600 X86.169 Y103.14
G1 F1800 X86.858 Y103.829 E0.01833
G0 F3600 X86.293 Y103.829
G1 F1800 X86.169 Y103.705 E0.0033
;MESH:NONMESH
G0 F600 X86.169 Y103.705 Z0.5
G0 F3600 X114.33 Y104.33
G0 X114.4 Y104.4
;TIME_ELAPSED:42.560584
;LAYER:1
M106 S255
;TYPE:WALL-INNER
;MESH:rectangulo.STL
G1 F2700 X85.6 Y104.4 E0.36116
G1 X85.6 Y95.6 E0.11036
G1 X114.4 Y95.6 E0.36116
G1 X114.4 Y104.4 E0.11036
G0 F5400 X114.8 Y104.8
;TYPE:WALL-OUTER
G1 F1800 X85.2 Y104.8 E0.37119
G1 X85.2 Y95.2 E0.12039
G1 X114.8 Y95.2 E0.37119
G1 X114.8 Y104.8 E0.12039
G0 F5400 X114.6 Y104.8
G0 X114.01 Y104.01
;TYPE:SKIN
G1 F1800 X85.99 Y104.01 E0.35138
G1 X85.99 Y95.99 E0.10057
G1 X114.01 Y95.99 E0.35138
G1 X114.01 Y104.01 E0.10057
G0 F5400 X113.393 Y103.829
G1 F1800 X113.829 Y103.393 E0.00773
G0 F5400 X113.829 Y102.828
G1 F1800 X112.828 Y103.829 E0.01775
G0 F5400 X112.262 Y103.829
G1 F1800 X113.829 Y102.262 E0.02779
G0 F5400 X113.829 Y101.696
G1 F1800 X111.696 Y103.829 E0.03783
G0 F5400 X111.131 Y103.829
G1 F1800 X113.829 Y101.131 E0.04785
G0 F5400 X113.829 Y100.565
G1 F1800 X110.565 Y103.829 E0.05789
G0 F5400 X109.999 Y103.829
G1 F1800 X113.829 Y99.999 E0.06792
G0 F5400 X113.829 Y99.434
G1 F1800 X109.433 Y103.829 E0.07795
G0 F5400 X108.868 Y103.829
G1 F1800 X113.829 Y98.868 E0.08798
G0 F5400 X113.829 Y98.302
G1 F1800 X108.302 Y103.829 E0.09802
G0 F5400 X107.736 Y103.829
G1 F1800 X113.829 Y97.737 E0.10805
G0 F5400 X113.829 Y97.171
G1 F1800 X107.171 Y103.829 E0.11808
G0 F5400 X106.605 Y103.829
G1 F1800 X113.829 Y96.605 E0.12812
G0 F5400 X113.699 Y96.169
G1 F1800 X106.039 Y103.829 E0.13585
G0 F5400 X105.474 Y103.829
G1 F1800 X113.134 Y96.169 E0.13585
G0 F5400 X112.568 Y96.169
G1 F1800 X104.908 Y103.829 E0.13585
G0 F5400 X104.342 Y103.829
G1 F1800 X112.002 Y96.169 E0.13585
G0 F5400 X111.437 Y96.169
G1 F1800 X103.777 Y103.829 E0.13585
G0 F5400 X103.211 Y103.829
G1 F1800 X110.871 Y96.169 E0.13585
G0 F5400 X110.305 Y96.169
G1 F1800 X102.645 Y103.829 E0.13585
G0 F5400 X102.08 Y103.829
G1 F1800 X109.74 Y96.169 E0.13585
G0 F5400 X109.174 Y96.169
G1 F1800 X101.514 Y103.829 E0.13585
G0 F5400 X100.948 Y103.829
G1 F1800 X108.608 Y96.169 E0.13585
G0 F5400 X108.043 Y96.169
G1 F1800 X100.382 Y103.829 E0.13586
G0 F5400 X99.817 Y103.829
G1 F1800 X107.477 Y96.169 E0.13585
G0 F5400 X106.911 Y96.169
G1 F1800 X99.251 Y103.829 E0.13585
G0 F5400 X98.685 Y103.829
G1 F1800 X106.346 Y96.169 E0.13586
G0 F5400 X105.78 Y96.169
G1 F1800 X98.12 Y103.829 E0.13585
G0 F5400 X97.554 Y103.829
G1 F1800 X105.214 Y96.169 E0.13585
G0 F5400 X104.648 Y96.169
G1 F1800 X96.988 Y103.829 E0.13585
G0 F5400 X96.423 Y103.829
G1 F1800 X104.083 Y96.169 E0.13585
G0 F5400 X103.517 Y96.169
G1 F1800 X95.857 Y103.829 E0.13585
G0 F5400 X95.291 Y103.829
G1 F1800 X102.951 Y96.169 E0.13585
G0 F5400 X102.386 Y96.169
G1 F1800 X94.726 Y103.829 E0.13585
G0 F5400 X94.16 Y103.829
G1 F1800 X101.82 Y96.169 E0.13585
G0 F5400 X101.254 Y96.169
G1 F1800 X93.594 Y103.829 E0.13585
G0 F5400 X93.029 Y103.829
G1 F1800 X100.689 Y96.169 E0.13585
G0 F5400 X100.123 Y96.169
G1 F1800 X92.463 Y103.829 E0.13585
G0 F5400 X91.897 Y103.829
G1 F1800 X99.557 Y96.169 E0.13585
G0 F5400 X98.992 Y96.169
G1 F1800 X91.332 Y103.829 E0.13585
G0 F5400 X90.766 Y103.829
G1 F1800 X98.426 Y96.169 E0.13585
G0 F5400 X97.86 Y96.169
G1 F1800 X90.2 Y103.829 E0.13585
G0 F5400 X89.634 Y103.829
G1 F1800 X97.295 Y96.169 E0.13586
G0 F5400 X96.729 Y96.169
G1 F1800 X89.069 Y103.829 E0.13585
G0 F5400 X88.503 Y103.829
G1 F1800 X96.163 Y96.169 E0.13585
G0 F5400 X95.598 Y96.169
G1 F1800 X87.937 Y103.829 E0.13586
G0 F5400 X87.372 Y103.829
G1 F1800 X95.032 Y96.169 E0.13585
G0 F5400 X94.466 Y96.169
G1 F1800 X86.806 Y103.829 E0.13585
G0 F5400 X86.24 Y103.829
G1 F1800 X93.9 Y96.169 E0.13585
G0 F5400 X93.335 Y96.169
G1 F1800 X86.17 Y103.334 E0.12707
G0 F5400 X86.17 Y102.768
G1 F1800 X92.769 Y96.169 E0.11703
G0 F5400 X92.203 Y96.169
G1 F1800 X86.17 Y102.203 E0.107
G0 F5400 X86.17 Y101.637
G1 F1800 X91.638 Y96.169 E0.09697
G0 F5400 X91.072 Y96.169
G1 F1800 X86.17 Y101.071 E0.08694
G0 F5400 X86.17 Y100.506
G1 F1800 X90.506 Y96.169 E0.07691
G0 F5400 X89.941 Y96.169
G1 F1800 X86.17 Y99.94 E0.06688
G0 F5400 X86.17 Y99.374
G1 F1800 X89.375 Y96.169 E0.05684
G0 F5400 X88.809 Y96.169
G1 F1800 X86.17 Y98.808 E0.0468
G0 F5400 X86.17 Y98.243
G1 F1800 X88.244 Y96.169 E0.03678
G0 F5400 X87.678 Y96.169
G1 F1800 X86.17 Y97.677 E0.02674
G0 F5400 X86.17 Y97.111
G1 F1800 X87.112 Y96.169 E0.01671
G0 F5400 X86.547 Y96.169
G1 F1800 X86.17 Y96.546 E0.00669
;MESH:NONMESH
G0 F600 X86.17 Y96.546 Z0.7
G0 F5400 X114.33 Y104.33
G0 X114.4 Y104.4
;TIME_ELAPSED:68.704390
;LAYER:2
;TYPE:WALL-INNER
;MESH:rectangulo.STL
G1 F3600 X85.6 Y104.4 E0.36116
G1 X85.6 Y95.6 E0.11036
G1 X114.4 Y95.6 E0.36116
G1 X114.4 Y104.4 E0.11036
G0 F7200 X114.8 Y104.8
;TYPE:WALL-OUTER
G1 F1800 X85.2 Y104.8 E0.37119
G1 X85.2 Y95.2 E0.12039
G1 X114.8 Y95.2 E0.37119
G1 X114.8 Y104.8 E0.12039
G0 F7200 X114.6 Y104.8
G0 X114.01 Y104.01
;TYPE:SKIN
G1 F1800 X85.99 Y104.01 E0.35138
G1 X85.99 Y95.99 E0.10057
G1 X114.01 Y95.99 E0.35138
G1 X114.01 Y104.01 E0.10057
G0 F7200 X113.829 Y96.293
G1 F1800 X113.706 Y96.17 E0.00218
G0 F7200 X113.14 Y96.17
G1 F1800 X113.829 Y96.858 E0.01221
G0 F7200 X113.829 Y97.424
G1 F1800 X112.574 Y96.17 E0.02225
G0 F7200 X112.009 Y96.17
G1 F1800 X113.829 Y97.99 E0.03228
G0 F7200 X113.829 Y98.555
G1 F1800 X111.443 Y96.17 E0.04231
G0 F7200 X110.877 Y96.17
G1 F1800 X113.829 Y99.121 E0.05234
G0 F7200 X113.829 Y99.687
G1 F1800 X110.312 Y96.17 E0.06237
G0 F7200 X109.746 Y96.17
G1 F1800 X113.829 Y100.252 E0.0724
G0 F7200 X113.829 Y100.818
G1 F1800 X109.18 Y96.17 E0.08244
G0 F7200 X108.615 Y96.17
G1 F1800 X113.829 Y101.384 E0.09247
G0 F7200 X113.829 Y101.949
G1 F1800 X108.049 Y96.17 E0.1025
G0 F7200 X107.483 Y96.17
G1 F1800 X113.829 Y102.515 E0.11254
G0 F7200 X113.829 Y103.081
G1 F1800 X106.918 Y96.17 E0.12256
G0 F7200 X106.352 Y96.17
G1 F1800 X113.829 Y103.647 E0.1326
G0 F7200 X113.446 Y103.829
G1 F1800 X105.786 Y96.17 E0.13584
G0 F7200 X105.221 Y96.17
G1 F1800 X112.88 Y103.829 E0.13583
G0 F7200 X112.314 Y103.829
G1 F1800 X104.655 Y96.17 E0.13583
G0 F7200 X104.089 Y96.17
G1 F1800 X111.749 Y103.829 E0.13584
G0 F7200 X111.183 Y103.829
G1 F1800 X103.523 Y96.17 E0.13584
G0 F7200 X102.958 Y96.17
G1 F1800 X110.617 Y103.829 E0.13583
G0 F7200 X110.051 Y103.829
G1 F1800 X102.392 Y96.17 E0.13583
G0 F7200 X101.826 Y96.17
G1 F1800 X109.486 Y103.829 E0.13584
G0 F7200 X108.92 Y103.829
G1 F1800 X101.261 Y96.17 E0.13583
G0 F7200 X100.695 Y96.17
G1 F1800 X108.354 Y103.829 E0.13583
G0 F7200 X107.789 Y103.829
G1 F1800 X100.129 Y96.17 E0.13584
G0 F7200 X99.564 Y96.17
G1 F1800 X107.223 Y103.829 E0.13583
G0 F7200 X106.657 Y103.829
G1 F1800 X98.998 Y96.17 E0.13583
G0 F7200 X98.432 Y96.17
G1 F1800 X106.092 Y103.829 E0.13584
G0 F7200 X105.526 Y103.829
G1 F1800 X97.867 Y96.17 E0.13583
G0 F7200 X97.301 Y96.17
G1 F1800 X104.96 Y103.829 E0.13583
