;FLAVOR:Marlin
;TIME:695
;Filament used: 0.228799m, 0m
;Layer height: 0.2
;MINX:81.761
;MINY:91.001
;MINZ:0.3
;MAXX:115.971
;MAXY:109.002
;MAXZ:18.9
;Generated with Cura_SteamEngine 4.8.0
T0
M140 S60
M105
M190 S60
M104 S200
M105
M109 S200
M82 ;absolute extrusion mode
G28 ;Home
G1 Z15.0 F6000 ;Move the platform down 15mm
;Prime the extruder
G92 E0
G1 F200 E3
G92 E0
M83 ;relative extrusion mode
G1 F1500 E-6.5
;LAYER_COUNT:95
;LAYER:0
M107
G0 F3600 X83.424 Y91.887 Z0.3
;TYPE:SKIRT
G1 F1500 E6.5
G1 F1800 X83.89 Y91.567 E0.01063
G1 X84.396 Y91.315 E0.01063
G1 X84.933 Y91.137 E0.01064
G1 X85.489 Y91.037 E0.01063
G1 X85.853 Y91.015 E0.00686
G1 X86.701 Y91.001 E0.01595
G1 X111.355 Y91.001 E0.46376
G1 X112.016 Y91.01 E0.01243
G1 X112.58 Y91.058 E0.01065
G1 X113.131 Y91.185 E0.01064
G1 X113.658 Y91.388 E0.01062
G1 X114.152 Y91.663 E0.01064
G1 X114.602 Y92.005 E0.01063
G1 X114.999 Y92.407 E0.01063
G1 X115.336 Y92.861 E0.01064
G1 X115.605 Y93.359 E0.01065
G1 X115.802 Y93.889 E0.01064
G1 X115.921 Y94.441 E0.01062
G1 X115.969 Y95.198 E0.01427
G1 X115.971 Y95.316 E0.00222
G1 X115.971 Y104.314 E0.16926
G1 X115.962 Y105.041 E0.01368
G1 X115.915 Y105.604 E0.01063
G1 X115.789 Y106.155 E0.01063
G1 X115.587 Y106.683 E0.01063
G1 X115.312 Y107.177 E0.01064
G1 X114.97 Y107.627 E0.01063
G1 X114.568 Y108.025 E0.01064
G1 X114.115 Y108.362 E0.01062
G1 X113.618 Y108.632 E0.01064
G1 X113.088 Y108.829 E0.01064
G1 X112.536 Y108.95 E0.01063
G1 X111.753 Y108.998 E0.01476
G1 X111.654 Y109 E0.00186
G1 X111.039 Y109.002 E0.01157
G1 X110 Y109 E0.01954
G1 X86.528 Y109 E0.44152
G1 X85.827 Y108.99 E0.01319
G1 X85.264 Y108.942 E0.01063
G1 X84.713 Y108.815 E0.01064
G1 X84.185 Y108.611 E0.01065
G1 X83.692 Y108.336 E0.01062
G1 X83.056 Y107.818 E0.01543
G1 X82.943 Y107.705 E0.00301
G1 X82.572 Y107.278 E0.01064
G1 X82.265 Y106.803 E0.01064
G1 X82.029 Y106.29 E0.01062
G1 X81.867 Y105.748 E0.01064
G1 X81.774 Y105.02 E0.01381
G1 X81.761 Y104.315 E0.01326
G1 X81.761 Y95.766 E0.16081
G1 X81.771 Y95.11 E0.01234
G1 X81.82 Y94.547 E0.01063
G1 X81.947 Y93.996 E0.01064
G1 X82.151 Y93.469 E0.01063
G1 X82.427 Y92.975 E0.01064
G1 X82.86 Y92.427 E0.01314
G1 X83.008 Y92.27 E0.00406
G1 X83.424 Y91.887 E0.01064
G0 F3600 X83.695 Y92.183
G1 F1800 X84.141 Y91.884 E0.0101
G1 X84.625 Y91.654 E0.01008
G1 X85.139 Y91.5 E0.01009
G1 X85.859 Y91.414 E0.01364
G1 X86.701 Y91.401 E0.01584
G1 X111.35 Y91.401 E0.46366
G1 X112.011 Y91.41 E0.01243
G1 X112.545 Y91.458 E0.01009
G1 X113.066 Y91.584 E0.01008
G1 X113.563 Y91.786 E0.01009
G1 X114.024 Y92.059 E0.01008
G1 X114.44 Y92.398 E0.01009
G1 X114.8 Y92.796 E0.01009
G1 X115.098 Y93.242 E0.01009
G1 X115.326 Y93.727 E0.01008
G1 X115.479 Y94.241 E0.01009
G1 X115.56 Y94.904 E0.01256
G1 X115.571 Y95.316 E0.00775
G1 X115.571 Y104.309 E0.16916
G1 X115.562 Y105.036 E0.01368
G1 X115.515 Y105.57 E0.01008
G1 X115.39 Y106.091 E0.01008
G1 X115.188 Y106.588 E0.01009
G1 X114.915 Y107.05 E0.01009
G1 X114.577 Y107.466 E0.01008
G1 X114.18 Y107.827 E0.01009
G1 X113.734 Y108.125 E0.01009
G1 X113.249 Y108.353 E0.01008
G1 X112.735 Y108.507 E0.01009
G1 X112.063 Y108.59 E0.01274
G1 X111.653 Y108.6 E0.00771
G1 X111.04 Y108.602 E0.01153
G1 X110.001 Y108.6 E0.01954
G1 X86.534 Y108.6 E0.44143
G1 X85.833 Y108.59 E0.01319
G1 X85.298 Y108.542 E0.0101
G1 X84.777 Y108.416 E0.01008
G1 X84.281 Y108.213 E0.01008
G1 X83.82 Y107.939 E0.01009
G1 X83.338 Y107.536 E0.01182
G1 X83.225 Y107.423 E0.00301
G1 X82.876 Y107.016 E0.01009
G1 X82.59 Y106.562 E0.01009
G1 X82.375 Y106.071 E0.01008
G1 X82.235 Y105.553 E0.01009
G1 X82.173 Y105.005 E0.01037
G1 X82.161 Y104.311 E0.01306
G1 X82.161 Y95.772 E0.16062
G1 X82.171 Y95.116 E0.01234
G1 X82.22 Y94.582 E0.01009
G1 X82.346 Y94.061 E0.01008
G1 X82.549 Y93.565 E0.01008
G1 X82.824 Y93.104 E0.0101
G1 X83.151 Y92.702 E0.00975
G1 X83.299 Y92.545 E0.00406
G1 X83.695 Y92.183 E0.01009
G0 F3600 X83.965 Y92.48
G1 F1800 X84.389 Y92.204 E0.00952
G1 X84.851 Y91.998 E0.00952
G1 X85.339 Y91.867 E0.0095
G1 X85.866 Y91.814 E0.00996
G1 X86.701 Y91.801 E0.01571
G1 X111.345 Y91.801 E0.46357
G1 X112.006 Y91.81 E0.01243
G1 X112.509 Y91.857 E0.0095
G1 X112.999 Y91.983 E0.00952
G1 X113.463 Y92.184 E0.00951
G1 X113.889 Y92.455 E0.0095
G1 X114.267 Y92.791 E0.00951
G1 X114.588 Y93.181 E0.0095
G1 X114.843 Y93.618 E0.00952
G1 X115.027 Y94.089 E0.00951
G1 X115.133 Y94.583 E0.0095
G1 X115.17 Y95.222 E0.01204
G1 X115.171 Y104.304 E0.17084
G1 X115.162 Y105.031 E0.01368
G1 X115.116 Y105.534 E0.0095
G1 X114.991 Y106.024 E0.00951
G1 X114.79 Y106.488 E0.00951
G1 X114.519 Y106.915 E0.00951
G1 X114.184 Y107.294 E0.00951
G1 X113.794 Y107.615 E0.0095
G1 X113.358 Y107.871 E0.00951
G1 X112.887 Y108.054 E0.00951
G1 X112.393 Y108.162 E0.00951
G1 X111.731 Y108.199 E0.01247
G1 X111.041 Y108.202 E0.01298
G1 X110.002 Y108.2 E0.01954
G1 X86.539 Y108.2 E0.44135
G1 X85.838 Y108.19 E0.01319
G1 X85.335 Y108.143 E0.0095
G1 X84.845 Y108.017 E0.00952
G1 X84.382 Y107.815 E0.0095
G1 X83.955 Y107.543 E0.00952
G1 X83.508 Y107.14 E0.01132
G1 X83.18 Y106.755 E0.00951
G1 X82.917 Y106.324 E0.0095
G1 X82.724 Y105.856 E0.00952
G1 X82.608 Y105.364 E0.00951
G1 X82.567 Y104.823 E0.01021
G1 X82.561 Y104.308 E0.00969
G1 X82.561 Y95.778 E0.16045
G1 X82.571 Y95.122 E0.01234
G1 X82.619 Y94.619 E0.0095
G1 X82.745 Y94.129 E0.00952
G1 X82.947 Y93.666 E0.0095
G1 X83.219 Y93.24 E0.00951
G1 X83.591 Y92.819 E0.01057
G1 X83.965 Y92.48 E0.0095
G0 F3600 X85.992 Y95.201
;TYPE:SUPPORT
G1 F1800 X110.147 Y95.2 E0.45437
G1 X110.147 Y104.8 E0.18058
G1 X85.961 Y104.8 E0.45495
G1 X85.961 Y95.233 E0.17996
G1 X85.992 Y95.201 E0.00084
G0 F3600 X86.121 Y96.012
G1 F1800 X109.987 Y96.012 E0.44893
G0 F3600 X109.347 Y95.36
G1 F1800 X109.347 Y104.64 E0.17456
G0 F3600 X109.987 Y104.013
G1 F1800 X86.121 Y104.013 E0.44893
G0 F3600 X88.011 Y104.64
G1 F1800 X88.011 Y95.36 E0.17456
G0 F3600 X90.678 Y95.36
G1 F1800 X90.678 Y104.64 E0.17456
G0 F3600 X93.345 Y104.64
G1 F1800 X93.345 Y95.36 E0.17456
G0 F3600 X96.012 Y95.36
G1 F1800 X96.012 Y104.64 E0.17456
G0 F3600 X98.679 Y104.64
G1 F1800 X98.679 Y95.36 E0.17456
G0 F3600 X101.346 Y95.36
G1 F1800 X101.346 Y104.64 E0.17456
G0 F3600 X104.013 Y104.64
G1 F1800 X104.013 Y95.36 E0.17456
G0 F3600 X106.68 Y95.36
G1 F1800 X106.68 Y104.64 E0.17456
G0 F3600 X109.987 Y101.346
G1 F1800 X86.121 Y101.346 E0.44893
G0 F3600 X86.121 Y98.679
G1 F1800 X109.987 Y98.679 E0.44893
G1 F1500 E-6.5
;MESH:rectangulo.STL
G0 F3600 X111.267 Y98.679
G0 X111.671 Y104.73
G0 X111.771 Y104.8
;TYPE:WALL-OUTER
G1 F1500 E6.5
G1 F1800 X111.247 Y104.8 E0.00986
G1 X111.247 Y95.2 E0.18058
G1 X111.771 Y95.2 E0.00986
G1 X111.771 Y104.8 E0.18058
G0 F3600 X111.571 Y104.8
G0 X111.507 Y104.436
;TYPE:SKIN
G1 F1800 X111.507 Y104.153 E0.00183
G1 X111.507 Y95.668 E0.05501
G1 X111.546 Y95.424 E0.0016
G0 F3600 X111.371 Y95.6
G1 F1500 E-6.5
;MESH:NONMESH
G0 F600 X111.371 Y95.6 Z0.5
G0 F3600 X111.261 Y104.786
G0 X110.382 Y104.786
G0 X88.011 Y104.8
;TIME_ELAPSED:25.046783
;LAYER:1
M106 S255
;TYPE:SUPPORT
G1 F1500 E6.5
G1 F2700 X90.678 Y104.8 E0.03345
G1 X90.678 Y95.2 E0.12039
G1 X93.345 Y95.2 E0.03345
G1 X93.345 Y104.8 E0.12039
G1 X96.012 Y104.8 E0.03345
G1 X96.012 Y95.2 E0.12039
G1 X98.679 Y95.2 E0.03345
G1 X98.679 Y104.8 E0.12039
G1 X101.346 Y104.8 E0.03345
G1 X101.346 Y95.2 E0.12039
G1 X104.013 Y95.2 E0.03345
G1 X104.013 Y104.8 E0.12039
G1 X106.68 Y104.8 E0.03345
G1 X106.68 Y95.2 E0.12039
G1 X109.347 Y95.2 E0.03345
G1 X109.347 Y104.8 E0.12039
G1 X110.155 Y104.8 E0.01013
G1 X110.155 Y95.2 E0.12039
G1 X109.347 Y95.2 E0.01013
G0 F5400 X88.011 Y104.8
G1 F2700 X85.961 Y104.8 E0.02571
G1 X85.961 Y95.232 E0.11999
G1 X85.992 Y95.201 E0.00055
G1 X86.388 Y95.2 E0.00497
G1 X88.011 Y95.2 E0.02035
G1 X88.011 Y104.8 E0.12039
G1 F1500 E-6.5
;MESH:rectangulo.STL
G0 F5400 X110.036 Y104.386
G0 X111.315 Y104.386
G0 X111.486 Y104.4
;TYPE:WALL-INNER
G1 F1500 E6.5
G1 F2700 X111.301 Y104.4 E0.00232
G1 X111.301 Y95.6 E0.11036
G1 X111.486 Y95.6 E0.00232
G1 X111.486 Y104.4 E0.05104
G0 F5400 X111.886 Y104.8
;TYPE:WALL-OUTER
G1 F1800 X110.901 Y104.8 E0.01235
G1 X110.901 Y95.2 E0.12039
G1 X111.886 Y95.2 E0.01235
G1 X111.886 Y104.8 E0.12039
G0 F5400 X111.686 Y104.8
G1 F1500 E-6.5
;MESH:NONMESH
G0 F600 X111.686 Y104.8 Z0.7
G0 F5400 X111.416 Y104.33
G0 X110.036 Y104.386
G0 X88.011 Y104.8
;TIME_ELAPSED:31.236599
;LAYER:2
;TYPE:SUPPORT
G1 F1500 E6.5
G1 F3039.1 X90.678 Y104.8 E0.03345
G1 X90.678 Y95.2 E0.12039
G1 X93.345 Y95.2 E0.03345
G1 X93.345 Y104.8 E0.12039
G1 X96.012 Y104.8 E0.03345
G1 X96.012 Y95.2 E0.12039
G1 X98.679 Y95.2 E0.03345
G1 X98.679 Y104.8 E0.12039
G1 X101.346 Y104.8 E0.03345
G1 X101.346 Y95.2 E0.12039
G1 X104.013 Y95.2 E0.03345
G1 X104.013 Y104.8 E0.12039
G1 X106.68 Y104.8 E0.03345
G1 X106.68 Y95.2 E0.12039
G1 X109.347 Y95.2 E0.03345
G1 X109.347 Y104.8 E0.12039
G1 X109.808 Y104.8 E0.00578
G1 X109.808 Y95.2 E0.12039
G1 X109.347 Y95.2 E0.00578
G0 F7200 X88.011 Y104.8
G1 F3039.1 X85.961 Y104.8 E0.02571
G1 X85.961 Y95.232 E0.11999
G1 X85.992 Y95.201 E0.00055
G1 X86.385 Y95.2 E0.00493
G1 X88.011 Y95.2 E0.02039
G1 X88.011 Y104.8 E0.12039
G1 F1500 E-6.5
;MESH:rectangulo.STL
G0 F7200 X109.69 Y104.386
G0 X110.969 Y104.386
G0 X111.602 Y104.4
;TYPE:WALL-INNER
G1 F1500 E6.5
G1 F3039.1 X110.955 Y104.4 E0.00811
G1 X110.955 Y95.6 E0.11036
G1 X111.602 Y95.6 E0.00811
G1 X111.602 Y104.4 E0.11036
G0 F7200 X112.002 Y104.8
;TYPE:WALL-OUTER
G1 F1519.6 X110.555 Y104.8 E0.01815
G1 X110.555 Y95.2 E0.12039
G1 X112.002 Y95.2 E0.01815
G1 X112.002 Y104.8 E0.12039
G0 F7200 X111.802 Y104.8
G0 X111.42 Y104.067
;TYPE:SKIN
G1 F1519.6 X111.133 Y103.779 E0.0051
G0 F7200 X111.42 Y103.501
G1 F1519.6 X111.133 Y103.214 E0.00509
G0 F7200 X111.42 Y102.935
G1 F1519.6 X111.133 Y102.648 E0.00509
G0 F7200 X111.42 Y102.369
G1 F1519.6 X111.133 Y102.082 E0.00509
G0 F7200 X111.42 Y101.804
G1 F1519.6 X111.133 Y101.517 E0.00509
G0 F7200 X111.42 Y101.238
G1 F1519.6 X111.133 Y100.951 E0.00509
G0 F7200 X111.42 Y100.672
G1 F1519.6 X111.133 Y100.385 E0.00509
G0 F7200 X111.42 Y100.107
G1 F1519.6 X111.133 Y99.82 E0.00509
G0 F7200 X111.42 Y99.541
G1 F1519.6 X111.133 Y99.254 E0.00509
G0 F7200 X111.42 Y98.975
G1 F1519.6 X111.133 Y98.688 E0.00509
G0 F7200 X111.42 Y98.41
G1 F1519.6 X111.133 Y98.123 E0.00509
G0 F7200 X111.42 Y97.844
G1 F1519.6 X111.133 Y97.557 E0.00509
G0 F7200 X111.42 Y97.278
G1 F1519.6 X111.133 Y96.991 E0.00509
G0 F7200 X111.42 Y96.713
G1 F1519.6 X111.133 Y96.426 E0.00509
G0 F7200 X111.42 Y96.147
G1 F1519.6 X111.133 Y95.86 E0.00509
G0 F7200 X111.202 Y95.86
G1 F1500 E-6.5
;MESH:NONMESH
G0 F600 X111.202 Y95.86 Z0.9
G0 F7200 X110.969 Y104.386
G0 X109.69 Y104.386
G0 X88.011 Y104.8
;TIME_ELAPSED:37.676392
;LAYER:3
;TYPE:SUPPORT
G1 F1500 E6.5
G1 F3352.4 X90.678 Y104.8 E0.03345
G1 X90.678 Y95.2 E0.12039
G1 X93.345 Y95.2 E0.03345
G1 X93.345 Y104.8 E0.12039
G1 X96.012 Y104.8 E0.03345
G1 X96.012 Y95.2 E0.12039
G1 X98.679 Y95.2 E0.03345
G1 X98.679 Y104.8 E0.12039
G1 X101.346 Y104.8 E0.03345
G1 X101.346 Y95.2 E0.12039
G1 X104.013 Y95.2 E0.03345
G1 X104.013 Y104.8 E0.12039
G1 X106.68 Y104.8 E0.03345
G1 X106.68 Y95.2 E0.12039
G1 X109.347 Y95.2 E0.03345
G1 X109.347 Y104.8 E0.12039
G1 X109.462 Y104.8 E0.00144
G1 X109.462 Y95.2 E0.12039
G1 X109.347 Y95.2 E0.00144
G0 F7200 X88.011 Y104.8
G1 F3352.4 X85.961 Y104.8 E0.02571
G1 X85.961 Y95.232 E0.11999
G1 X85.992 Y95.201 E0.00055
G1 X86.382 Y95.2 E0.00489
G1 X88.011 Y95.2 E0.02043
G1 X88.011 Y104.8 E0.12039
G1 F1500 E-6.5
;MESH:rectangulo.STL
G0 F7200 X109.343 Y104.386
G0 X110.622 Y104.386
G0 X111.647 Y104.33
G0 X111.717 Y104.4
;TYPE:WALL-INNER
G1 F1500 E6.5
G1 F3352.4 X110.608 Y104.4 E0.01391
G1 X110.608 Y95.6 E0.11036
G1 X111.717 Y95.6 E0.01391
G1 X111.717 Y104.4 E0.11036
G0 F7200 X112.117 Y104.8
;TYPE:WALL-OUTER
G1 F1676.2 X110.208 Y104.8 E0.02394
G1 X110.208 Y95.2 E0.12039
G1 X112.117 Y95.2 E0.02394
G1 X112.117 Y104.8 E0.12039
G0 F7200 X111.917 Y104.8
G0 X111.327 Y104.01
;TYPE:SKIN
G1 F1676.2 X110.998 Y104.01 E0.00413
G1 X110.998 Y95.99 E0.10057
G1 X111.327 Y95.99 E0.00413
G1 X111.327 Y104.01 E0.10057
G0 F7200 X111.317 Y104
G1 F1500 E-6.5
;MESH:NONMESH
G0 F600 X111.317 Y104 Z1.1
G0 F7200 X109.343 Y104.386
G0 X88.011 Y104.8
;TIME_ELAPSED:43.844798
;LAYER:4
;TYPE:SUPPORT
G1 F1500 E6.5
G1 F3552 X90.678 Y104.8 E0.03345
G1 X90.678 Y95.2 E0.12039
G1 X93.345 Y95.2 E0.03345
G1 X93.345 Y104.8 E0.12039
G1 X96.012 Y104.8 E0.03345
G1 X96.012 Y95.2 E0.12039
G1 X98.679 Y95.2 E0.03345
G1 X98.679 Y104.8 E0.12039
G1 X101.346 Y104.8 E0.03345
G1 X101.346 Y95.2 E0.12039
G1 X104.013 Y95.2 E0.03345
G1 X104.013 Y104.8 E0.12039
G1 X106.68 Y104.8 E0.03345
G1 X106.68 Y95.2 E0.12039
G1 X109.115 Y95.2 E0.03054
G1 X109.115 Y104.8 E0.12039
G1 X106.68 Y104.8 E0.03054
G0 F7200 X88.011 Y104.8
G1 F3552 X85.961 Y104.8 E0.02571
G1 X85.961 Y95.232 E0.11999
G1 X85.992 Y95.201 E0.00055
G1 X86.379 Y95.2 E0.00485
G1 X88.011 Y95.2 E0.02047
G1 X88.011 Y104.8 E0.12039
G1 F1500 E-6.5
;MESH:rectangulo.STL
G0 F7200 X108.997 Y104.386
G0 X110.276 Y104.386
G0 X111.763 Y104.33
G0 X111.833 Y104.4
;TYPE:WALL-INNER
G1 F1500 E6.5
G1 F3552 X110.262 Y104.4 E0.0197
G1 X110.262 Y95.6 E0.11036
G1 X111.833 Y95.6 E0.0197
G1 X111.833 Y104.4 E0.11036
G0 F7200 X112.233 Y104.8
;TYPE:WALL-OUTER
G1 F1776 X109.862 Y104.8 E0.02973
G1 X109.862 Y95.2 E0.12039
G1 X112.233 Y95.2 E0.02973
G1 X112.233 Y104.8 E0.12039
G0 F7200 X112.033 Y104.8
G0 X111.443 Y104.01
;TYPE:SKIN
G1 F1776 X110.652 Y104.01 E0.00992
G1 X110.652 Y95.99 E0.10057
G1 X111.443 Y95.99 E0.00992
G1 X111.443 Y104.01 E0.10057
G0 F7200 X111.183 Y103.829
G1 F1776 X110.831 Y103.477 E0.00624
G0 F7200 X111.262 Y103.342
G1 F1776 X110.831 Y102.911 E0.00764
G0 F7200 X111.262 Y102.777
G1 F1776 X110.831 Y102.345 E0.00765
G0 F7200 X111.262 Y102.211
G1 F1776 X110.831 Y101.78 E0.00764
G0 F7200 X111.262 Y101.645
G1 F1776 X110.831 Y101.214 E0.00764
G0 F7200 X111.262 Y101.08
G1 F1776 X110.831 Y100.648 E0.00765
G0 F7200 X111.262 Y100.514
G1 F1776 X110.831 Y100.083 E0.00764
G0 F7200 X111.262 Y99.948
G1 F1776 X110.831 Y99.517 E0.00764
G0 F7200 X111.262 Y99.383
G1 F1776 X110.831 Y98.951 E0.00765
G0 F7200 X111.262 Y98.817
G1 F1776 X110.831 Y98.386 E0.00764
G0 F7200 X111.262 Y98.251
G1 F1776 X110.831 Y97.82 E0.00764
G0 F7200 X111.262 Y97.686
G1 F1776 X110.831 Y97.254 E0.00765
G0 F7200 X111.262 Y97.12
G1 F1776 X110.831 Y96.689 E0.00764
G0 F7200 X111.262 Y96.554
G1 F1776 X110.877 Y96.17 E0.00682
G1 F1500 E-6.5
;MESH:NONMESH
G0 F600 X110.877 Y96.17 Z1.3
G0 F7200 X110.276 Y104.386
G0 X108.997 Y104.386
G0 X88.011 Y104.8
;TIME_ELAPSED:50.340933
;LAYER:5
;TYPE:SUPPORT
G1 F1500 E6.5
G1 F3600 X90.678 Y104.8 E0.03345
G1 X90.678 Y95.2 E0.12039
G1 X93.345 Y95.2 E0.03345
G1 X93.345 Y104.8 E0.12039
G1 X96.012 Y104.8 E0.03345
G1 X96.012 Y95.2 E0.12039
G1 X98.679 Y95.2 E0.03345
G1 X98.679 Y104.8 E0.12039
G1 X101.346 Y104.8 E0.03345
G1 X101.346 Y95.2 E0.12039
G1 X104.013 Y95.2 E0.03345
G1 X104.013 Y104.8 E0.12039
G1 X106.68 Y104.8 E0.03345
G1 X106.68 Y95.2 E0.12039
G1 X108.769 Y95.2 E0.0262
G1 X108.769 Y104.8 E0.12039
G1 X106.68 Y104.8 E0.0262
G0 F7200 X88.011 Y104.8
G1 F3600 X85.961 Y104.8 E0.02571
G1 X85.961 Y95.232 E0.11999
G1 X85.992 Y95.201 E0.00055
G1 X86.376 Y95.2 E0.00482
G1 X88.011 Y95.2 E0.0205
G1 X88.011 Y104.8 E0.12039
G1 F1500 E-6.5
;MESH:rectangulo.STL
G0 F7200 X108.65 Y104.386
G0 X109.929 Y104.386
G0 X111.46 Y100.146
;TYPE:FILL
G1 F1500 E6.5
G1 F3600 X111.787 Y100.473 E0.0058
G0 F7200 X111.46 Y99.852
G1 F3600 X111.787 Y99.525 E0.0058
G0 F7200 X111.878 Y104.33
G0 X111.948 Y104.4
;TYPE:WALL-INNER
G1 F3600 X109.915 Y104.4 E0.02549
G1 X109.915 Y95.6 E0.11036
G1 X111.948 Y95.6 E0.02549
G1 X111.948 Y104.4 E0.11036
G0 F7200 X112.348 Y104.8
;TYPE:WALL-OUTER
G1 F1800 X109.515 Y104.8 E0.03553
G1 X109.515 Y95.2 E0.12039
G1 X112.348 Y95.2 E0.03553
G1 X112.348 Y104.8 E0.12039
G0 F7200 X112.148 Y104.8
G0 X111.878 Y104.33
G0 X111.311 Y104.01
;TYPE:SKIN
G1 F1800 X110.305 Y104.01 E0.01262
G1 X110.305 Y95.99 E0.10057
G1 X111.311 Y95.99 E0.01262
G1 X111.311 Y104.01 E0.10057
G0 F7200 X111.13 Y103.264
G1 F1800 X110.564 Y103.83 E0.01004
G0 F7200 X110.484 Y103.344
G1 F1800 X111.13 Y102.698 E0.01146
G0 F7200 X111.13 Y102.133
G1 F1800 X110.484 Y102.778 E0.01145
G0 F7200 X110.484 Y102.212
G1 F1800 X111.13 Y101.567 E0.01145
