;FLAVOR:Marlin
;TIME:1311
;Filament used: 0.451516m, 0m
;Layer height: 0.2
;MINX:82.161
;MINY:70.934
;MINZ:0.3
;MAXX:115.571
;MAXY:108.602
;MAXZ:18.9
;Generated with Cura_SteamEngine 4.8.0
T0
M140 S60
M105
M190 S60
M104 S200
M105
M109 S200
M82 ;absolute extrusion mode
G28 ;Home
G1 Z15.0 F6000 ;Move the platform down 15mm
;Prime the extruder
G92 E0
G1 F200 E3
G92 E0
M83 ;relative extrusion mode
G1 F1500 E-6.5
;LAYER_COUNT:95
;LAYER:0
M107
G0 F3600 X83.151 Y72.235 Z0.3
;TYPE:SKIRT
G1 F1500 E6.5
G1 F1800 X83.299 Y72.078 E0.00406
G1 X83.695 Y71.716 E0.01009
G1 X84.141 Y71.417 E0.0101
G1 X84.625 Y71.187 E0.01008
G1 X85.139 Y71.033 E0.01009
G1 X85.859 Y70.947 E0.01364
G1 X86.701 Y70.934 E0.01584
G1 X111.35 Y70.934 E0.46366
G1 X112.011 Y70.943 E0.01243
G1 X112.545 Y70.991 E0.01009
G1 X113.066 Y71.117 E0.01008
G1 X113.563 Y71.319 E0.01009
G1 X114.024 Y71.592 E0.01008
G1 X114.44 Y71.931 E0.01009
G1 X114.8 Y72.329 E0.01009
G1 X115.098 Y72.775 E0.01009
G1 X115.326 Y73.26 E0.01008
G1 X115.479 Y73.774 E0.01009
G1 X115.56 Y74.437 E0.01256
G1 X115.571 Y74.849 E0.00775
G1 X115.571 Y83.877 E0.16982
G1 X115.558 Y84.683 E0.01516
G1 X115.517 Y85.643 E0.01807
G1 X115.437 Y88.435 E0.05254
G1 X115.437 Y91.131 E0.05071
G1 X115.515 Y93.922 E0.05252
G1 X115.554 Y94.716 E0.01495
G1 X115.571 Y95.33 E0.01155
G1 X115.571 Y104.309 E0.1689
G1 X115.562 Y105.036 E0.01368
G1 X115.515 Y105.57 E0.01008
G1 X115.39 Y106.091 E0.01008
G1 X115.188 Y106.588 E0.01009
G1 X114.915 Y107.05 E0.01009
G1 X114.577 Y107.466 E0.01008
G1 X114.18 Y107.827 E0.01009
G1 X113.734 Y108.125 E0.01009
G1 X113.249 Y108.353 E0.01008
G1 X112.735 Y108.507 E0.01009
G1 X112.063 Y108.59 E0.01274
G1 X111.653 Y108.6 E0.00771
G1 X111.04 Y108.602 E0.01153
G1 X110.001 Y108.6 E0.01954
G1 X86.534 Y108.6 E0.44143
G1 X85.833 Y108.59 E0.01319
G1 X85.298 Y108.542 E0.0101
G1 X84.777 Y108.416 E0.01008
G1 X84.281 Y108.213 E0.01008
G1 X83.82 Y107.939 E0.01009
G1 X83.338 Y107.536 E0.01182
G1 X83.225 Y107.423 E0.00301
G1 X82.876 Y107.016 E0.01009
G1 X82.59 Y106.562 E0.01009
G1 X82.375 Y106.071 E0.01008
G1 X82.235 Y105.553 E0.01009
G1 X82.173 Y105.005 E0.01037
G1 X82.161 Y104.311 E0.01306
G1 X82.161 Y95.808 E0.15995
G1 X82.174 Y94.986 E0.01546
G1 X82.22 Y93.896 E0.02052
G1 X82.299 Y91.116 E0.05231
G1 X82.299 Y88.42 E0.05071
G1 X82.22 Y85.629 E0.05252
G1 X82.196 Y85.175 E0.00855
G1 X82.166 Y84.307 E0.01634
G1 X82.161 Y83.898 E0.00769
G1 X82.161 Y75.306 E0.16162
G1 X82.171 Y74.649 E0.01236
G1 X82.219 Y74.115 E0.01009
G1 X82.346 Y73.594 E0.01009
G1 X82.549 Y73.098 E0.01008
G1 X82.824 Y72.637 E0.0101
G1 X83.151 Y72.235 E0.00975
G0 F3600 X83.591 Y72.352
G1 F1800 X83.965 Y72.013 E0.0095
G1 X84.389 Y71.737 E0.00952
G1 X84.851 Y71.531 E0.00952
G1 X85.339 Y71.4 E0.0095
G1 X85.866 Y71.347 E0.00996
G1 X86.701 Y71.334 E0.01571
G1 X111.345 Y71.334 E0.46357
G1 X112.006 Y71.343 E0.01243
G1 X112.509 Y71.39 E0.0095
G1 X112.999 Y71.516 E0.00952
G1 X113.463 Y71.717 E0.00951
G1 X113.889 Y71.988 E0.0095
G1 X114.267 Y72.324 E0.00951
G1 X114.588 Y72.714 E0.0095
G1 X114.843 Y73.151 E0.00952
G1 X115.027 Y73.622 E0.00951
G1 X115.133 Y74.116 E0.0095
G1 X115.17 Y74.755 E0.01204
G1 X115.171 Y83.871 E0.17148
G1 X115.161 Y84.575 E0.01324
G1 X115.117 Y85.632 E0.0199
G1 X115.037 Y88.424 E0.05254
G1 X115.037 Y91.143 E0.05115
G1 X115.113 Y93.874 E0.05139
G1 X115.155 Y94.728 E0.01608
G1 X115.17 Y95.236 E0.00956
G1 X115.171 Y104.304 E0.17057
G1 X115.162 Y105.031 E0.01368
G1 X115.116 Y105.534 E0.0095
G1 X114.991 Y106.024 E0.00951
G1 X114.79 Y106.488 E0.00951
G1 X114.519 Y106.915 E0.00951
G1 X114.184 Y107.294 E0.00951
G1 X113.794 Y107.615 E0.0095
G1 X113.358 Y107.871 E0.00951
G1 X112.887 Y108.054 E0.00951
G1 X112.393 Y108.162 E0.00951
G1 X111.731 Y108.199 E0.01247
G1 X111.041 Y108.202 E0.01298
G1 X110.002 Y108.2 E0.01954
G1 X86.539 Y108.2 E0.44135
G1 X85.838 Y108.19 E0.01319
G1 X85.335 Y108.143 E0.0095
G1 X84.845 Y108.017 E0.00952
G1 X84.382 Y107.815 E0.0095
G1 X83.955 Y107.543 E0.00952
G1 X83.508 Y107.14 E0.01132
G1 X83.18 Y106.755 E0.00951
G1 X82.917 Y106.324 E0.0095
G1 X82.724 Y105.856 E0.00952
G1 X82.608 Y105.364 E0.00951
G1 X82.567 Y104.823 E0.01021
G1 X82.561 Y104.308 E0.00969
G1 X82.561 Y95.813 E0.1598
G1 X82.571 Y95.094 E0.01353
G1 X82.62 Y93.919 E0.02212
G1 X82.699 Y91.127 E0.05254
G1 X82.699 Y88.409 E0.05113
G1 X82.62 Y85.632 E0.05226
G1 X82.596 Y85.161 E0.00887
G1 X82.566 Y84.302 E0.01617
G1 X82.561 Y83.893 E0.00769
G1 X82.561 Y75.312 E0.16141
G1 X82.571 Y74.655 E0.01236
G1 X82.619 Y74.152 E0.0095
G1 X82.745 Y73.662 E0.00952
G1 X82.947 Y73.199 E0.0095
G1 X83.219 Y72.773 E0.00951
G1 X83.591 Y72.352 E0.01057
G0 F3600 X85.992 Y74.734
;TYPE:SUPPORT
G1 F1800 X110.147 Y74.733 E0.45437
G1 X110.147 Y84.333 E0.18058
G1 X85.961 Y84.333 E0.45495
G1 X85.961 Y74.766 E0.17996
G1 X85.992 Y74.734 E0.00084
G0 F3600 X88.011 Y74.893
G1 F1800 X88.011 Y84.173 E0.17456
G0 F3600 X86.121 Y82.677
G1 F1800 X109.987 Y82.677 E0.44893
G0 F3600 X109.347 Y84.173
G1 F1800 X109.347 Y74.893 E0.17456
G0 F3600 X109.987 Y77.343
G1 F1800 X86.121 Y77.343 E0.44893
G0 F3600 X86.121 Y80.01
G1 F1800 X109.987 Y80.01 E0.44893
G0 F3600 X106.68 Y84.173
G1 F1800 X106.68 Y74.893 E0.17456
G0 F3600 X104.013 Y74.893
G1 F1800 X104.013 Y84.173 E0.17456
G0 F3600 X101.346 Y84.173
G1 F1800 X101.346 Y74.893 E0.17456
G0 F3600 X98.679 Y74.893
G1 F1800 X98.679 Y84.173 E0.17456
G0 F3600 X96.012 Y84.173
G1 F1800 X96.012 Y74.893 E0.17456
G0 F3600 X93.345 Y74.893
G1 F1800 X93.345 Y84.173 E0.17456
G0 F3600 X90.678 Y84.173
G1 F1800 X90.678 Y74.893 E0.17456
G0 F3600 X85.992 Y95.201
G1 F1800 X110.147 Y95.2 E0.45437
G1 X110.147 Y104.8 E0.18058
G1 X85.961 Y104.8 E0.45495
G1 X85.961 Y95.233 E0.17996
G1 X85.992 Y95.201 E0.00084
G0 F3600 X86.121 Y96.012
G1 F1800 X109.987 Y96.012 E0.44893
G0 F3600 X109.347 Y95.36
G1 F1800 X109.347 Y104.64 E0.17456
G0 F3600 X109.987 Y104.013
G1 F1800 X86.121 Y104.013 E0.44893
G0 F3600 X88.011 Y104.64
G1 F1800 X88.011 Y95.36 E0.17456
G0 F3600 X90.678 Y95.36
G1 F1800 X90.678 Y104.64 E0.17456
G0 F3600 X93.345 Y104.64
G1 F1800 X93.345 Y95.36 E0.17456
G0 F3600 X96.012 Y95.36
G1 F1800 X96.012 Y104.64 E0.17456
G0 F3600 X98.679 Y104.64
G1 F1800 X98.679 Y95.36 E0.17456
G0 F3600 X101.346 Y95.36
G1 F1800 X101.346 Y104.64 E0.17456
G0 F3600 X104.013 Y104.64
G1 F1800 X104.013 Y95.36 E0.17456
G0 F3600 X106.68 Y95.36
G1 F1800 X106.68 Y104.64 E0.17456
G0 F3600 X109.987 Y101.346
G1 F1800 X86.121 Y101.346 E0.44893
G0 F3600 X86.121 Y98.679
G1 F1800 X109.987 Y98.679 E0.44893
G1 F1500 E-6.5
;MESH:rectangulo.STL(1)
G0 F3600 X111.261 Y85.198
G0 X111.261 Y84.319
G0 X111.771 Y84.333
;TYPE:WALL-OUTER
G1 F1500 E6.5
G1 F1800 X111.247 Y84.333 E0.00986
G1 X111.247 Y74.733 E0.18058
G1 X111.771 Y74.733 E0.00986
G1 X111.771 Y84.333 E0.18058
G0 F3600 X111.571 Y84.333
G0 X111.573 Y84.137
;TYPE:SKIN
G1 F1800 X111.44 Y84.004 E0.00177
G0 F3600 X111.507 Y83.789
G1 F1800 X111.507 Y83.506 E0.00186
G1 X111.507 Y75.021 E0.05578
G0 F3600 X111.371 Y74.954
G1 F1500 E-6.5
;MESH:rectangulo.STL
G0 F3600 X111.671 Y84.313
G0 X111.671 Y85.198
G0 X111.671 Y94.335
G0 X111.671 Y95.22
G0 X111.671 Y104.73
G0 X111.771 Y104.8
;TYPE:WALL-OUTER
G1 F1500 E6.5
G1 F1800 X111.247 Y104.8 E0.00986
G1 X111.247 Y95.2 E0.18058
G1 X111.771 Y95.2 E0.00986
G1 X111.771 Y104.8 E0.18058
G0 F3600 X111.571 Y104.8
G0 X111.507 Y104.436
;TYPE:SKIN
G1 F1800 X111.507 Y104.153 E0.00183
G1 X111.507 Y95.668 E0.05501
G1 X111.546 Y95.424 E0.0016
G0 F3600 X111.371 Y95.6
G1 F1500 E-6.5
;MESH:NONMESH
G0 F600 X111.371 Y95.6 Z0.5
G0 F3600 X110.635 Y94.589
G0 X88.011 Y84.333
;TIME_ELAPSED:34.828883
;LAYER:1
M106 S255
;TYPE:SUPPORT
G1 F1500 E6.5
G1 F2700 X90.678 Y84.333 E0.03345
G1 X90.678 Y74.733 E0.12039
G1 X93.345 Y74.733 E0.03345
G1 X93.345 Y84.333 E0.12039
G1 X96.012 Y84.333 E0.03345
G1 X96.012 Y74.733 E0.12039
G1 X98.679 Y74.733 E0.03345
G1 X98.679 Y84.333 E0.12039
G1 X101.346 Y84.333 E0.03345
G1 X101.346 Y74.733 E0.12039
G1 X104.013 Y74.733 E0.03345
G1 X104.013 Y84.333 E0.12039
G1 X106.68 Y84.333 E0.03345
G1 X106.68 Y74.733 E0.12039
G1 X109.347 Y74.733 E0.03345
G1 X109.347 Y84.333 E0.12039
G1 X110.155 Y84.333 E0.01013
G1 X110.155 Y74.733 E0.12039
G1 X109.347 Y74.733 E0.01013
G0 F5400 X88.011 Y84.333
G1 F2700 X85.961 Y84.333 E0.02571
G1 X85.961 Y74.765 E0.11999
G1 X85.992 Y74.734 E0.00055
G1 X86.388 Y74.733 E0.00497
G1 X88.011 Y74.733 E0.02035
G1 X88.011 Y84.333 E0.12039
G0 F5400 X88.011 Y104.8
G1 F2700 X90.678 Y104.8 E0.03345
G1 X90.678 Y95.2 E0.12039
G1 X93.345 Y95.2 E0.03345
G1 X93.345 Y104.8 E0.12039
G1 X96.012 Y104.8 E0.03345
G1 X96.012 Y95.2 E0.12039
G1 X98.679 Y95.2 E0.03345
G1 X98.679 Y104.8 E0.12039
G1 X101.346 Y104.8 E0.03345
G1 X101.346 Y95.2 E0.12039
G1 X104.013 Y95.2 E0.03345
G1 X104.013 Y104.8 E0.12039
G1 X106.68 Y104.8 E0.03345
G1 X106.68 Y95.2 E0.12039
G1 X109.347 Y95.2 E0.03345
G1 X109.347 Y104.8 E0.12039
G1 X110.155 Y104.8 E0.01013
G1 X110.155 Y95.2 E0.12039
G1 X109.347 Y95.2 E0.01013
G0 F5400 X88.011 Y104.8
G1 F2700 X85.961 Y104.8 E0.02571
G1 X85.961 Y95.232 E0.11999
G1 X85.992 Y95.201 E0.00055
G1 X86.388 Y95.2 E0.00497
G1 X88.011 Y95.2 E0.02035
G1 X88.011 Y104.8 E0.12039
G1 F1500 E-6.5
;MESH:rectangulo.STL(1)
G0 F5400 X110.036 Y83.919
G0 X111.315 Y83.919
G0 X111.486 Y83.933
;TYPE:WALL-INNER
G1 F1500 E6.5
G1 F2700 X111.301 Y83.933 E0.00232
G1 X111.301 Y75.133 E0.11036
G1 X111.486 Y75.133 E0.00232
G1 X111.486 Y83.933 E0.05104
G0 F5400 X111.886 Y84.333
;TYPE:WALL-OUTER
G1 F1800 X110.901 Y84.333 E0.01235
G1 X110.901 Y74.733 E0.12039
G1 X111.886 Y74.733 E0.01235
G1 X111.886 Y84.333 E0.12039
G0 F5400 X111.686 Y84.333
G1 F1500 E-6.5
;MESH:rectangulo.STL
G0 F5400 X111.416 Y83.863
G0 X111.416 Y85.198
G0 X111.416 Y94.335
G0 X111.416 Y95.62
G0 X111.416 Y104.33
G0 X111.486 Y104.4
;TYPE:WALL-INNER
G1 F1500 E6.5
G1 F2700 X111.301 Y104.4 E0.00232
G1 X111.301 Y95.6 E0.11036
G1 X111.486 Y95.6 E0.00232
G1 X111.486 Y104.4 E0.05104
G0 F5400 X111.886 Y104.8
;TYPE:WALL-OUTER
G1 F1800 X110.901 Y104.8 E0.01235
G1 X110.901 Y95.2 E0.12039
G1 X111.886 Y95.2 E0.01235
G1 X111.886 Y104.8 E0.12039
G0 F5400 X111.686 Y104.8
G1 F1500 E-6.5
;MESH:NONMESH
G0 F600 X111.686 Y104.8 Z0.7
G0 F5400 X111.416 Y104.33
G0 X111.315 Y95.614
G0 X110.036 Y95.614
G0 X88.011 Y84.333
;TIME_ELAPSED:46.787637
;LAYER:2
;TYPE:SUPPORT
G1 F1500 E6.5
G1 F3600 X90.678 Y84.333 E0.03345
G1 X90.678 Y74.733 E0.12039
G1 X93.345 Y74.733 E0.03345
G1 X93.345 Y84.333 E0.12039
G1 X96.012 Y84.333 E0.03345
G1 X96.012 Y74.733 E0.12039
G1 X98.679 Y74.733 E0.03345
G1 X98.679 Y84.333 E0.12039
G1 X101.346 Y84.333 E0.03345
G1 X101.346 Y74.733 E0.12039
G1 X104.013 Y74.733 E0.03345
G1 X104.013 Y84.333 E0.12039
G1 X106.68 Y84.333 E0.03345
G1 X106.68 Y74.733 E0.12039
G1 X109.347 Y74.733 E0.03345
G1 X109.347 Y84.333 E0.12039
G1 X109.808 Y84.333 E0.00578
G1 X109.808 Y74.733 E0.12039
G1 X109.347 Y74.733 E0.00578
G0 F7200 X88.011 Y84.333
G1 F3600 X85.961 Y84.333 E0.02571
G1 X85.961 Y74.765 E0.11999
G1 X85.992 Y74.734 E0.00055
G1 X86.385 Y74.733 E0.00493
G1 X88.011 Y74.733 E0.02039
G1 X88.011 Y84.333 E0.12039
G0 F7200 X88.011 Y104.8
G1 F3600 X90.678 Y104.8 E0.03345
G1 X90.678 Y95.2 E0.12039
G1 X93.345 Y95.2 E0.03345
G1 X93.345 Y104.8 E0.12039
G1 X96.012 Y104.8 E0.03345
G1 X96.012 Y95.2 E0.12039
G1 X98.679 Y95.2 E0.03345
G1 X98.679 Y104.8 E0.12039
G1 X101.346 Y104.8 E0.03345
G1 X101.346 Y95.2 E0.12039
G1 X104.013 Y95.2 E0.03345
G1 X104.013 Y104.8 E0.12039
G1 X106.68 Y104.8 E0.03345
G1 X106.68 Y95.2 E0.12039
G1 X109.347 Y95.2 E0.03345
G1 X109.347 Y104.8 E0.12039
G1 X109.808 Y104.8 E0.00578
G1 X109.808 Y95.2 E0.12039
G1 X109.347 Y95.2 E0.00578
G0 F7200 X88.011 Y104.8
G1 F3600 X85.961 Y104.8 E0.02571
G1 X85.961 Y95.232 E0.11999
G1 X85.992 Y95.201 E0.00055
G1 X86.385 Y95.2 E0.00493
G1 X88.011 Y95.2 E0.02039
G1 X88.011 Y104.8 E0.12039
G1 F1500 E-6.5
;MESH:rectangulo.STL(1)
G0 F7200 X109.69 Y83.919
G0 X110.969 Y83.919
G0 X111.602 Y83.933
;TYPE:WALL-INNER
G1 F1500 E6.5
G1 F3600 X110.955 Y83.933 E0.00811
G1 X110.955 Y75.133 E0.11036
G1 X111.602 Y75.133 E0.00811
G1 X111.602 Y83.933 E0.11036
G0 F7200 X112.002 Y84.333
;TYPE:WALL-OUTER
G1 F1800 X110.555 Y84.333 E0.01815
G1 X110.555 Y74.733 E0.12039
G1 X112.002 Y74.733 E0.01815
G1 X112.002 Y84.333 E0.12039
G0 F7200 X111.802 Y84.333
G0 X111.42 Y83.702
;TYPE:SKIN
G1 F1800 X111.133 Y83.415 E0.00509
G0 F7200 X111.42 Y83.136
G1 F1800 X111.133 Y82.849 E0.00509
G0 F7200 X111.42 Y82.57
G1 F1800 X111.133 Y82.283 E0.00509
G0 F7200 X111.42 Y82.005
G1 F1800 X111.133 Y81.718 E0.00509
G0 F7200 X111.42 Y81.439
G1 F1800 X111.133 Y81.152 E0.00509
G0 F7200 X111.42 Y80.873
G1 F1800 X111.133 Y80.586 E0.00509
G0 F7200 X111.42 Y80.308
G1 F1800 X111.133 Y80.021 E0.00509
G0 F7200 X111.42 Y79.742
G1 F1800 X111.133 Y79.455 E0.00509
G0 F7200 X111.42 Y79.176
G1 F1800 X111.133 Y78.889 E0.00509
G0 F7200 X111.42 Y78.611
G1 F1800 X111.133 Y78.324 E0.00509
G0 F7200 X111.42 Y78.045
G1 F1800 X111.133 Y77.758 E0.00509
G0 F7200 X111.42 Y77.479
G1 F1800 X111.133 Y77.192 E0.00509
G0 F7200 X111.42 Y76.914
G1 F1800 X111.133 Y76.627 E0.00509
G0 F7200 X111.42 Y76.348
G1 F1800 X111.133 Y76.061 E0.00509
G0 F7200 X111.42 Y75.782
G1 F1800 X111.133 Y75.495 E0.00509
G0 F7200 X111.202 Y75.495
G1 F1500 E-6.5
;MESH:rectangulo.STL
G0 F7200 X111.532 Y83.913
G0 X111.532 Y85.198
G0 X111.532 Y94.335
G0 X111.532 Y95.62
G0 X111.532 Y104.33
G0 X111.602 Y104.4
;TYPE:WALL-INNER
G1 F1500 E6.5
G1 F3600 X110.955 Y104.4 E0.00811
G1 X110.955 Y95.6 E0.11036
G1 X111.602 Y95.6 E0.00811
G1 X111.602 Y104.4 E0.11036
G0 F7200 X112.002 Y104.8
;TYPE:WALL-OUTER
G1 F1800 X110.555 Y104.8 E0.01815
G1 X110.555 Y95.2 E0.12039
G1 X112.002 Y95.2 E0.01815
G1 X112.002 Y104.8 E0.12039
G0 F7200 X111.802 Y104.8
G0 X111.42 Y104.067
;TYPE:SKIN
G1 F1800 X111.133 Y103.779 E0.0051
G0 F7200 X111.42 Y103.501
G1 F1800 X111.133 Y103.214 E0.00509
G0 F7200 X111.42 Y102.935
G1 F1800 X111.133 Y102.648 E0.00509
G0 F7200 X111.42 Y102.369
G1 F1800 X111.133 Y102.082 E0.00509
G0 F7200 X111.42 Y101.804
G1 F1800 X111.133 Y101.517 E0.00509
G0 F7200 X111.42 Y101.238
G1 F1800 X111.133 Y100.951 E0.00509
G0 F7200 X111.42 Y100.672
G1 F1800 X111.133 Y100.385 E0.00509
G0 F7200 X111.42 Y100.107
G1 F1800 X111.133 Y99.82 E0.00509
G0 F7200 X111.42 Y99.541
G1 F1800 X111.133 Y99.254 E0.00509
G0 F7200 X111.42 Y98.975
G1 F1800 X111.133 Y98.688 E0.00509
G0 F7200 X111.42 Y98.41
G1 F1800 X111.133 Y98.123 E0.00509
G0 F7200 X111.42 Y97.844
G1 F1800 X111.133 Y97.557 E0.00509
G0 F7200 X111.42 Y97.278
G1 F1800 X111.133 Y96.991 E0.00509
G0 F7200 X111.42 Y96.713
G1 F1800 X111.133 Y96.426 E0.00509
G0 F7200 X111.42 Y96.147
G1 F1800 X111.133 Y95.86 E0.00509
G0 F7200 X111.202 Y95.86
G1 F1500 E-6.5
;MESH:NONMESH
G0 F600 X111.202 Y95.86 Z0.9
G0 F7200 X109.69 Y95.614
G0 X88.011 Y84.333
;TIME_ELAPSED:57.868934
;LAYER:3
;TYPE:SUPPORT
G1 F1500 E6.5
G1 F3600 X90.678 Y84.333 E0.03345
G1 X90.678 Y74.733 E0.12039
G1 X93.345 Y74.733 E0.03345
G1 X93.345 Y84.333 E0.12039
G1 X96.012 Y84.333 E0.03345
G1 X96.012 Y74.733 E0.12039
G1 X98.679 Y74.733 E0.03345
G1 X98.679 Y84.333 E0.12039
G1 X101.346 Y84.333 E0.03345
G1 X101.346 Y74.733 E0.12039
G1 X104.013 Y74.733 E0.03345
G1 X104.013 Y84.333 E0.12039
G1 X106.68 Y84.333 E0.03345
G1 X106.68 Y74.733 E0.12039
G1 X109.347 Y74.733 E0.03345
G1 X109.347 Y84.333 E0.12039
G1 X109.462 Y84.333 E0.00144
G1 X109.462 Y74.733 E0.12039
G1 X109.347 Y74.733 E0.00144
G0 F7200 X88.011 Y84.333
G1 F3600 X85.961 Y84.333 E0.02571
G1 X85.961 Y74.765 E0.11999
G1 X85.992 Y74.734 E0.00055
G1 X86.382 Y74.733 E0.00489
G1 X88.011 Y74.733 E0.02043
G1 X88.011 Y84.333 E0.12039
G0 F7200 X88.011 Y104.8
G1 F3600 X90.678 Y104.8 E0.03345
G1 X90.678 Y95.2 E0.12039
G1 X93.345 Y95.2 E0.03345
G1 X93.345 Y104.8 E0.12039
G1 X96.012 Y104.8 E0.03345
G1 X96.012 Y95.2 E0.12039
G1 X98.679 Y95.2 E0.03345
G1 X98.679 Y104.8 E0.12039
G1 X101.346 Y104.8 E0.03345
G1 X101.346 Y95.2 E0.12039
G1 X104.013 Y95.2 E0.03345
G1 X104.013 Y104.8 E0.12039
G1 X106.68 Y104.8 E0.03345
G1 X106.68 Y95.2 E0.12039
G1 X109.347 Y95.2 E0.03345
G1 X109.347 Y104.8 E0.12039
G1 X109.462 Y104.8 E0.00144
G1 X109.462 Y95.2 E0.12039
G1 X109.347 Y95.2 E0.00144
G0 F7200 X88.011 Y104.8
G1 F3600 X85.961 Y104.8 E0.02571
G1 X85.961 Y95.232 E0.11999
