;FLAVOR:Marlin
;TIME:689
;Filament used: 0.276583m, 0m
;Layer height: 0.2
;MINX:81.4
;MINY:70.933
;MINZ:0.3
;MAXX:118.6
;MAXY:108.6
;MAXZ:4.9
;Generated with Cura_SteamEngine 4.8.0
T0
M140 S60
M105
M190 S60
M104 S200
M105
M109 S200
M82 ;absolute extrusion mode
G28 ;Home
G1 Z15.0 F6000 ;Move the platform down 15mm
;Prime the extruder
G92 E0
G1 F200 E3
G92 E0
M83 ;relative extrusion mode
G1 F1500 E-6.5
;LAYER_COUNT:24
;LAYER:0
M107
G0 F3600 X82.397 Y72.064 Z0.3
;TYPE:SKIRT
G1 F1500 E6.5
G1 F1800 X82.794 Y71.704 E0.01008
G1 X83.241 Y71.406 E0.01011
G1 X83.726 Y71.178 E0.01008
G1 X84.24 Y71.025 E0.01009
G1 X84.908 Y70.943 E0.01266
G1 X85.33 Y70.933 E0.00794
G1 X114.345 Y70.933 E0.54579
G1 X115.043 Y70.943 E0.01313
G1 X115.577 Y70.991 E0.01009
G1 X116.098 Y71.117 E0.01008
G1 X116.595 Y71.32 E0.0101
G1 X117.056 Y71.594 E0.01009
G1 X117.471 Y71.933 E0.01008
G1 X117.831 Y72.331 E0.01009
G1 X118.128 Y72.777 E0.01008
G1 X118.356 Y73.263 E0.0101
G1 X118.508 Y73.777 E0.01008
G1 X118.59 Y74.442 E0.0126
G1 X118.6 Y74.863 E0.00792
G1 X118.6 Y83.857 E0.16918
G1 X118.587 Y84.683 E0.01554
G1 X118.546 Y85.643 E0.01807
G1 X118.466 Y88.435 E0.05254
G1 X118.466 Y91.131 E0.05071
G1 X118.544 Y93.922 E0.05252
G1 X118.583 Y94.716 E0.01495
G1 X118.6 Y95.33 E0.01155
G1 X118.6 Y104.309 E0.1689
G1 X118.591 Y105.036 E0.01368
G1 X118.544 Y105.57 E0.01008
G1 X118.419 Y106.091 E0.01008
G1 X118.217 Y106.588 E0.01009
G1 X117.944 Y107.05 E0.01009
G1 X117.606 Y107.466 E0.01008
G1 X117.209 Y107.827 E0.01009
G1 X116.763 Y108.125 E0.01009
G1 X116.278 Y108.353 E0.01008
G1 X115.764 Y108.507 E0.01009
G1 X115.092 Y108.59 E0.01274
G1 X114.67 Y108.6 E0.00794
G1 X85.661 Y108.6 E0.54568
G1 X84.963 Y108.591 E0.01313
G1 X84.428 Y108.544 E0.0101
G1 X83.907 Y108.418 E0.01008
G1 X83.41 Y108.216 E0.01009
G1 X82.949 Y107.943 E0.01008
G1 X82.533 Y107.604 E0.01009
G1 X82.172 Y107.208 E0.01008
G1 X81.874 Y106.762 E0.01009
G1 X81.646 Y106.276 E0.0101
G1 X81.493 Y105.762 E0.01009
G1 X81.41 Y105.088 E0.01277
G1 X81.4 Y104.658 E0.00809
G1 X81.4 Y95.656 E0.16933
G1 X81.413 Y94.848 E0.0152
G1 X81.454 Y93.881 E0.01821
G1 X81.534 Y91.095 E0.05243
G1 X81.534 Y88.402 E0.05066
G1 X81.456 Y85.611 E0.05252
G1 X81.417 Y84.817 E0.01495
G1 X81.4 Y84.203 E0.01155
G1 X81.4 Y75.158 E0.17014
G1 X81.409 Y74.493 E0.01251
G1 X81.457 Y73.959 E0.01009
G1 X81.583 Y73.438 E0.01008
G1 X81.785 Y72.941 E0.01009
G1 X82.058 Y72.48 E0.01008
G1 X82.397 Y72.064 E0.01009
G0 F3600 X82.789 Y72.237
G1 F1800 X83.18 Y71.916 E0.00952
G1 X83.617 Y71.661 E0.00952
G1 X84.088 Y71.477 E0.00951
G1 X84.582 Y71.371 E0.0095
G1 X85.24 Y71.334 E0.0124
G1 X114.339 Y71.333 E0.54737
G1 X115.037 Y71.343 E0.01313
G1 X115.54 Y71.39 E0.0095
G1 X116.03 Y71.516 E0.00952
G1 X116.494 Y71.718 E0.00952
G1 X116.92 Y71.99 E0.00951
G1 X117.298 Y72.325 E0.0095
G1 X117.618 Y72.716 E0.0095
G1 X117.873 Y73.153 E0.00952
G1 X118.056 Y73.624 E0.00951
G1 X118.163 Y74.118 E0.00951
G1 X118.199 Y74.773 E0.01234
G1 X118.2 Y83.851 E0.17076
G1 X118.19 Y84.574 E0.0136
G1 X118.146 Y85.632 E0.01992
G1 X118.066 Y88.424 E0.05254
G1 X118.066 Y91.143 E0.05115
G1 X118.143 Y93.901 E0.0519
G1 X118.184 Y94.728 E0.01558
G1 X118.199 Y95.236 E0.00956
G1 X118.2 Y104.304 E0.17057
G1 X118.191 Y105.031 E0.01368
G1 X118.145 Y105.534 E0.0095
G1 X118.02 Y106.024 E0.00951
G1 X117.819 Y106.488 E0.00951
G1 X117.548 Y106.915 E0.00951
G1 X117.213 Y107.294 E0.00951
G1 X116.823 Y107.615 E0.0095
G1 X116.387 Y107.871 E0.00951
G1 X115.916 Y108.054 E0.00951
G1 X115.422 Y108.162 E0.00951
G1 X114.76 Y108.199 E0.01247
G1 X85.666 Y108.2 E0.54727
G1 X84.968 Y108.191 E0.01313
G1 X84.464 Y108.144 E0.00952
G1 X83.974 Y108.019 E0.00951
G1 X83.51 Y107.818 E0.00951
G1 X83.084 Y107.547 E0.0095
G1 X82.705 Y107.212 E0.00951
G1 X82.384 Y106.821 E0.00952
G1 X82.129 Y106.385 E0.0095
G1 X81.945 Y105.914 E0.00951
G1 X81.838 Y105.42 E0.00951
G1 X81.801 Y104.744 E0.01273
G1 X81.8 Y95.662 E0.17084
G1 X81.81 Y94.956 E0.01328
G1 X81.854 Y93.901 E0.01986
G1 X81.934 Y91.107 E0.05258
G1 X81.934 Y88.39 E0.05111
G1 X81.857 Y85.624 E0.05205
G1 X81.816 Y84.805 E0.01543
G1 X81.801 Y84.297 E0.00956
G1 X81.8 Y75.164 E0.1718
G1 X81.809 Y74.499 E0.01251
G1 X81.856 Y73.995 E0.00952
G1 X81.982 Y73.506 E0.0095
G1 X82.183 Y73.042 E0.00951
G1 X82.454 Y72.615 E0.00951
G1 X82.789 Y72.237 E0.0095
G1 F1500 E-6.5
;MESH:rectangulo.STL(1)
G0 F3600 X85.614 Y73.868
G0 X85.614 Y75.147
G0 X114.33 Y83.863
G0 X114.4 Y83.933
;TYPE:WALL-INNER
G1 F1500 E6.5
G1 F1800 X85.6 Y83.933 E0.54174
G1 X85.6 Y75.133 E0.16553
G1 X114.4 Y75.133 E0.54174
G1 X114.4 Y83.933 E0.16553
G0 F3600 X114.8 Y84.333
;TYPE:WALL-OUTER
G1 F1800 X85.2 Y84.333 E0.55679
G1 X85.2 Y74.733 E0.18058
G1 X114.8 Y74.733 E0.55679
G1 X114.8 Y84.333 E0.18058
G0 F3600 X114.6 Y84.333
G0 X114.01 Y83.543
;TYPE:SKIN
G1 F1800 X85.99 Y83.543 E0.52707
G1 X85.99 Y75.523 E0.15086
G1 X114.01 Y75.523 E0.52707
G1 X114.01 Y83.543 E0.15086
G0 F3600 X113.829 Y75.928
G1 F1800 X113.604 Y75.703 E0.00599
G0 F3600 X113.038 Y75.703
G1 F1800 X113.829 Y76.494 E0.02104
G0 F3600 X113.829 Y77.059
G1 F1800 X112.473 Y75.703 E0.03607
G0 F3600 X111.907 Y75.703
G1 F1800 X113.829 Y77.625 E0.05113
G0 F3600 X113.829 Y78.191
G1 F1800 X111.341 Y75.703 E0.06619
G0 F3600 X110.776 Y75.703
G1 F1800 X113.829 Y78.756 E0.08122
G0 F3600 X113.829 Y79.322
G1 F1800 X110.21 Y75.703 E0.09627
G0 F3600 X109.644 Y75.703
G1 F1800 X113.829 Y79.888 E0.11133
G0 F3600 X113.829 Y80.453
G1 F1800 X109.078 Y75.703 E0.12637
G0 F3600 X108.513 Y75.703
G1 F1800 X113.829 Y81.019 E0.14142
G0 F3600 X113.829 Y81.585
G1 F1800 X107.947 Y75.703 E0.15647
G0 F3600 X107.381 Y75.703
G1 F1800 X113.829 Y82.15 E0.17152
G0 F3600 X113.829 Y82.716
G1 F1800 X106.816 Y75.703 E0.18656
G0 F3600 X106.25 Y75.703
G1 F1800 X113.829 Y83.282 E0.20162
G0 F3600 X113.344 Y83.362
G1 F1800 X105.684 Y75.703 E0.20376
G0 F3600 X105.119 Y75.703
G1 F1800 X112.778 Y83.362 E0.20375
G0 F3600 X112.212 Y83.362
G1 F1800 X104.553 Y75.703 E0.20375
G0 F3600 X103.987 Y75.703
G1 F1800 X111.647 Y83.362 E0.20376
G0 F3600 X111.081 Y83.362
G1 F1800 X103.422 Y75.703 E0.20375
G0 F3600 X102.856 Y75.703
G1 F1800 X110.515 Y83.362 E0.20375
G0 F3600 X109.95 Y83.362
G1 F1800 X102.29 Y75.703 E0.20376
G0 F3600 X101.725 Y75.703
G1 F1800 X109.384 Y83.362 E0.20375
G0 F3600 X108.818 Y83.362
G1 F1800 X101.159 Y75.703 E0.20375
G0 F3600 X100.593 Y75.703
G1 F1800 X108.253 Y83.362 E0.20376
G0 F3600 X107.687 Y83.362
G1 F1800 X100.028 Y75.703 E0.20375
G0 F3600 X99.462 Y75.703
G1 F1800 X107.121 Y83.362 E0.20375
G0 F3600 X106.556 Y83.362
G1 F1800 X98.896 Y75.703 E0.20376
G0 F3600 X98.33 Y75.703
G1 F1800 X105.99 Y83.362 E0.20376
G0 F3600 X105.424 Y83.362
G1 F1800 X97.765 Y75.703 E0.20375
G0 F3600 X97.199 Y75.703
G1 F1800 X104.858 Y83.362 E0.20375
G0 F3600 X104.293 Y83.362
G1 F1800 X96.633 Y75.703 E0.20376
G0 F3600 X96.068 Y75.703
G1 F1800 X103.727 Y83.362 E0.20375
G0 F3600 X103.161 Y83.362
G1 F1800 X95.502 Y75.703 E0.20375
G0 F3600 X94.936 Y75.703
G1 F1800 X102.596 Y83.362 E0.20376
G0 F3600 X102.03 Y83.362
G1 F1800 X94.371 Y75.703 E0.20375
G0 F3600 X93.805 Y75.703
G1 F1800 X101.464 Y83.362 E0.20375
G0 F3600 X100.899 Y83.362
G1 F1800 X93.239 Y75.703 E0.20376
G0 F3600 X92.674 Y75.703
G1 F1800 X100.333 Y83.362 E0.20375
G0 F3600 X99.767 Y83.362
G1 F1800 X92.108 Y75.703 E0.20375
G0 F3600 X91.542 Y75.703
G1 F1800 X99.202 Y83.362 E0.20376
G0 F3600 X98.636 Y83.362
G1 F1800 X90.977 Y75.703 E0.20375
G0 F3600 X90.411 Y75.703
G1 F1800 X98.07 Y83.362 E0.20375
G0 F3600 X97.505 Y83.362
G1 F1800 X89.845 Y75.703 E0.20376
G0 F3600 X89.28 Y75.703
G1 F1800 X96.939 Y83.362 E0.20375
G0 F3600 X96.373 Y83.362
G1 F1800 X88.714 Y75.703 E0.20375
G0 F3600 X88.148 Y75.703
G1 F1800 X95.808 Y83.362 E0.20376
G0 F3600 X95.242 Y83.362
G1 F1800 X87.582 Y75.703 E0.20376
G0 F3600 X87.017 Y75.703
G1 F1800 X94.676 Y83.362 E0.20375
G0 F3600 X94.11 Y83.362
G1 F1800 X86.451 Y75.703 E0.20375
G0 F3600 X86.168 Y75.986
G1 F1800 X93.545 Y83.362 E0.19623
G0 F3600 X92.979 Y83.362
G1 F1800 X86.168 Y76.552 E0.18117
G0 F3600 X86.168 Y77.117
G1 F1800 X92.413 Y83.362 E0.16613
G0 F3600 X91.848 Y83.362
G1 F1800 X86.168 Y77.683 E0.15109
G0 F3600 X86.168 Y78.249
G1 F1800 X91.282 Y83.362 E0.13603
G0 F3600 X90.716 Y83.362
G1 F1800 X86.168 Y78.814 E0.12099
G0 F3600 X86.168 Y79.38
G1 F1800 X90.151 Y83.362 E0.10594
G0 F3600 X89.585 Y83.362
G1 F1800 X86.168 Y79.946 E0.09089
G0 F3600 X86.168 Y80.511
G1 F1800 X89.019 Y83.362 E0.07584
G0 F3600 X88.454 Y83.362
G1 F1800 X86.168 Y81.077 E0.0608
G0 F3600 X86.168 Y81.643
G1 F1800 X87.888 Y83.362 E0.04574
G0 F3600 X87.322 Y83.362
G1 F1800 X86.168 Y82.208 E0.0307
G0 F3600 X86.168 Y82.774
G1 F1800 X86.757 Y83.362 E0.01566
G1 X86.827 Y83.432
G1 F1500 E-6.5
;MESH:rectangulo.STL
G0 F3600 X114.33 Y83.913
G0 X114.33 Y85.198
G0 X114.33 Y94.335
G0 X114.33 Y95.62
G0 X114.33 Y104.33
G0 X114.4 Y104.4
;TYPE:WALL-INNER
G1 F1500 E6.5
G1 F1800 X85.6 Y104.4 E0.54174
G1 X85.6 Y95.6 E0.16553
G1 X114.4 Y95.6 E0.54174
G1 X114.4 Y104.4 E0.16553
G0 F3600 X114.8 Y104.8
;TYPE:WALL-OUTER
G1 F1800 X85.2 Y104.8 E0.55679
G1 X85.2 Y95.2 E0.18058
G1 X114.8 Y95.2 E0.55679
G1 X114.8 Y104.8 E0.18058
G0 F3600 X114.6 Y104.8
G0 X114.01 Y104.01
;TYPE:SKIN
G1 F1800 X85.99 Y104.01 E0.52707
G1 X85.99 Y95.99 E0.15086
G1 X114.01 Y95.99 E0.52707
G1 X114.01 Y104.01 E0.15086
G0 F3600 X113.829 Y96.293
G1 F1800 X113.706 Y96.17 E0.00327
G0 F3600 X113.14 Y96.17
G1 F1800 X113.829 Y96.858 E0.01832
G0 F3600 X113.829 Y97.424
G1 F1800 X112.574 Y96.17 E0.03337
G0 F3600 X112.009 Y96.17
G1 F1800 X113.829 Y97.99 E0.04842
G0 F3600 X113.829 Y98.555
G1 F1800 X111.443 Y96.17 E0.06346
G0 F3600 X110.877 Y96.17
G1 F1800 X113.829 Y99.121 E0.07852
G0 F3600 X113.829 Y99.687
G1 F1800 X110.312 Y96.17 E0.09356
G0 F3600 X109.746 Y96.17
G1 F1800 X113.829 Y100.252 E0.1086
G0 F3600 X113.829 Y100.818
G1 F1800 X109.18 Y96.17 E0.12366
G0 F3600 X108.615 Y96.17
G1 F1800 X113.829 Y101.384 E0.1387
G0 F3600 X113.829 Y101.949
G1 F1800 X108.049 Y96.17 E0.15375
G0 F3600 X107.483 Y96.17
G1 F1800 X113.829 Y102.515 E0.1688
G0 F3600 X113.829 Y103.081
G1 F1800 X106.918 Y96.17 E0.18385
G0 F3600 X106.352 Y96.17
G1 F1800 X113.829 Y103.647 E0.1989
G0 F3600 X113.446 Y103.829
G1 F1800 X105.786 Y96.17 E0.20376
G0 F3600 X105.221 Y96.17
G1 F1800 X112.88 Y103.829 E0.20375
G0 F3600 X112.314 Y103.829
G1 F1800 X104.655 Y96.17 E0.20375
G0 F3600 X104.089 Y96.17
G1 F1800 X111.749 Y103.829 E0.20376
G0 F3600 X111.183 Y103.829
G1 F1800 X103.523 Y96.17 E0.20376
G0 F3600 X102.958 Y96.17
G1 F1800 X110.617 Y103.829 E0.20375
G0 F3600 X110.051 Y103.829
G1 F1800 X102.392 Y96.17 E0.20375
G0 F3600 X101.826 Y96.17
G1 F1800 X109.486 Y103.829 E0.20376
G0 F3600 X108.92 Y103.829
G1 F1800 X101.261 Y96.17 E0.20375
G0 F3600 X100.695 Y96.17
G1 F1800 X108.354 Y103.829 E0.20375
G0 F3600 X107.789 Y103.829
G1 F1800 X100.129 Y96.17 E0.20376
G0 F3600 X99.564 Y96.17
G1 F1800 X107.223 Y103.829 E0.20375
G0 F3600 X106.657 Y103.829
G1 F1800 X98.998 Y96.17 E0.20375
G0 F3600 X98.432 Y96.17
G1 F1800 X106.092 Y103.829 E0.20376
G0 F3600 X105.526 Y103.829
G1 F1800 X97.867 Y96.17 E0.20375
G0 F3600 X97.301 Y96.17
G1 F1800 X104.96 Y103.829 E0.20375
G0 F3600 X104.395 Y103.829
G1 F1800 X96.735 Y96.17 E0.20376
G0 F3600 X96.17 Y96.17
G1 F1800 X103.829 Y103.829 E0.20375
G0 F3600 X103.263 Y103.829
G1 F1800 X95.604 Y96.17 E0.20375
G0 F3600 X95.038 Y96.17
G1 F1800 X102.698 Y103.829 E0.20376
G0 F3600 X102.132 Y103.829
G1 F1800 X94.473 Y96.17 E0.20375
G0 F3600 X93.907 Y96.17
G1 F1800 X101.566 Y103.829 E0.20375
G0 F3600 X101.001 Y103.829
G1 F1800 X93.341 Y96.17 E0.20376
G0 F3600 X92.775 Y96.17
G1 F1800 X100.435 Y103.829 E0.20376
G0 F3600 X99.869 Y103.829
G1 F1800 X92.21 Y96.17 E0.20375
G0 F3600 X91.644 Y96.17
G1 F1800 X99.303 Y103.829 E0.20375
G0 F3600 X98.738 Y103.829
G1 F1800 X91.078 Y96.17 E0.20376
G0 F3600 X90.513 Y96.17
G1 F1800 X98.172 Y103.829 E0.20375
G0 F3600 X97.606 Y103.829
G1 F1800 X89.947 Y96.17 E0.20375
G0 F3600 X89.381 Y96.17
G1 F1800 X97.041 Y103.829 E0.20376
G0 F3600 X96.475 Y103.829
G1 F1800 X88.816 Y96.17 E0.20375
G0 F3600 X88.25 Y96.17
G1 F1800 X95.909 Y103.829 E0.20375
G0 F3600 X95.344 Y103.829
G1 F1800 X87.684 Y96.17 E0.20376
G0 F3600 X87.119 Y96.17
G1 F1800 X94.778 Y103.829 E0.20375
G0 F3600 X94.212 Y103.829
G1 F1800 X86.553 Y96.17 E0.20375
G0 F3600 X86.169 Y96.351
G1 F1800 X93.647 Y103.829 E0.19893
G0 F3600 X93.081 Y103.829
G1 F1800 X86.169 Y96.917 E0.18387
G0 F3600 X86.169 Y97.483
G1 F1800 X92.515 Y103.829 E0.16882
G0 F3600 X91.95 Y103.829
G1 F1800 X86.169 Y98.048 E0.15379
G0 F3600 X86.169 Y98.614
G1 F1800 X91.384 Y103.829 E0.13873
G0 F3600 X90.818 Y103.829
G1 F1800 X86.169 Y99.18 E0.12367
G0 F3600 X86.169 Y99.745
G1 F1800 X90.252 Y103.829 E0.10863
G0 F3600 X89.687 Y103.829
G1 F1800 X86.169 Y100.311 E0.09359
G0 F3600 X86.169 Y100.877
G1 F1800 X89.121 Y103.829 E0.07853
G0 F3600 X88.555 Y103.829
G1 F1800 X86.169 Y101.442 E0.06349
G0 F3600 X86.169 Y102.008
G1 F1800 X87.99 Y103.829 E0.04844
G0 F3600 X87.424 Y103.829
G1 F1800 X86.169 Y102.574 E0.03339
G0 F3600 X86.169 Y103.14
G1 F1800 X86.858 Y103.829 E0.01833
G0 F3600 X86.293 Y103.829
G1 F1800 X86.169 Y103.705 E0.0033
G1 F1500 E-6.5
;MESH:NONMESH
G0 F600 X86.169 Y103.705 Z0.5
G0 F3600 X114.33 Y95.62
G0 X114.33 Y94.335
G0 X114.33 Y85.198
G0 X114.33 Y83.913
G0 X114.4 Y83.933
;TIME_ELAPSED:69.963732
;LAYER:1
M106 S255
;TYPE:WALL-INNER
;MESH:rectangulo.STL(1)
G1 F1500 E6.5
G1 F2700 X85.6 Y83.933 E0.36116
G1 X85.6 Y75.133 E0.11036
G1 X114.4 Y75.133 E0.36116
G1 X114.4 Y83.933 E0.11036
G0 F5400 X114.8 Y84.333
;TYPE:WALL-OUTER
G1 F1800 X85.2 Y84.333 E0.37119
G1 X85.2 Y74.733 E0.12039
G1 X114.8 Y74.733 E0.37119
G1 X114.8 Y84.333 E0.12039
G0 F5400 X114.6 Y84.333
G0 X114.01 Y83.543
;TYPE:SKIN
G1 F1800 X85.99 Y83.543 E0.35138
G1 X85.99 Y75.523 E0.10057
G1 X114.01 Y75.523 E0.35138
G1 X114.01 Y83.543 E0.10057
G0 F5400 X113.829 Y83.029
G1 F1800 X113.495 Y83.362 E0.00591
G0 F5400 X112.929 Y83.362
G1 F1800 X113.829 Y82.463 E0.01595
G0 F5400 X113.829 Y81.897
G1 F1800 X112.364 Y83.362 E0.02598
G0 F5400 X111.798 Y83.362
G1 F1800 X113.829 Y81.332 E0.03601
G0 F5400 X113.829 Y80.766
G1 F1800 X111.232 Y83.362 E0.04605
G0 F5400 X110.667 Y83.362
G1 F1800 X113.829 Y80.2 E0.05608
G0 F5400 X113.829 Y79.635
G1 F1800 X110.101 Y83.362 E0.06611
G0 F5400 X109.535 Y83.362
G1 F1800 X113.829 Y79.069 E0.07614
G0 F5400 X113.829 Y78.503
G1 F1800 X108.97 Y83.362 E0.08617
G0 F5400 X108.404 Y83.362
G1 F1800 X113.829 Y77.938 E0.0962
G0 F5400 X113.829 Y77.372
G1 F1800 X107.838 Y83.362 E0.10624
G0 F5400 X107.273 Y83.362
G1 F1800 X113.829 Y76.806 E0.11627
G0 F5400 X113.829 Y76.24
G1 F1800 X106.707 Y83.362 E0.12631
G0 F5400 X106.141 Y83.362
G1 F1800 X113.801 Y75.702 E0.13585
G0 F5400 X113.236 Y75.702
G1 F1800 X105.575 Y83.362 E0.13586
G0 F5400 X105.01 Y83.362
G1 F1800 X112.67 Y75.702 E0.13585
G0 F5400 X112.104 Y75.702
G1 F1800 X104.444 Y83.362 E0.13585
G0 F5400 X103.878 Y83.362
G1 F1800 X111.539 Y75.702 E0.13586
G0 F5400 X110.973 Y75.702
G1 F1800 X103.313 Y83.362 E0.13585
G0 F5400 X102.747 Y83.362
G1 F1800 X110.407 Y75.702 E0.13585
G0 F5400 X109.841 Y75.702
G1 F1800 X102.181 Y83.362 E0.13585
G0 F5400 X101.616 Y83.362
G1 F1800 X109.276 Y75.702 E0.13585
G0 F5400 X108.71 Y75.702
G1 F1800 X101.05 Y83.362 E0.13585
G0 F5400 X100.484 Y83.362
G1 F1800 X108.144 Y75.702 E0.13585
G0 F5400 X107.579 Y75.702
G1 F1800 X99.919 Y83.362 E0.13585
G0 F5400 X99.353 Y83.362
G1 F1800 X107.013 Y75.702 E0.13585
G0 F5400 X106.447 Y75.702
G1 F1800 X98.787 Y83.362 E0.13585
G0 F5400 X98.222 Y83.362
G1 F1800 X105.882 Y75.702 E0.13585
G0 F5400 X105.316 Y75.702
G1 F1800 X97.656 Y83.362 E0.13585
G0 F5400 X97.09 Y83.362
G1 F1800 X104.75 Y75.702 E0.13585
G0 F5400 X104.185 Y75.702
G1 F1800 X96.525 Y83.362 E0.13585
G0 F5400 X95.959 Y83.362
G1 F1800 X103.619 Y75.702 E0.13585
G0 F5400 X103.053 Y75.702
G1 F1800 X95.393 Y83.362 E0.13585
G0 F5400 X94.827 Y83.362
G1 F1800 X102.488 Y75.702 E0.13586
G0 F5400 X101.922 Y75.702
G1 F1800 X94.262 Y83.362 E0.13585
G0 F5400 X93.696 Y83.362
G1 F1800 X101.356 Y75.702 E0.13585
G0 F5400 X100.791 Y75.702
G1 F1800 X93.13 Y83.362 E0.13586
G0 F5400 X92.565 Y83.362
G1 F1800 X100.225 Y75.702 E0.13585
G0 F5400 X99.659 Y75.702
G1 F1800 X91.999 Y83.362 E0.13585
